!!!!SEGMENT: pl-cz--iii-111--003_dankowski-adalbert--vesperae-d-laetatus-sum.krn
!!!cenid: 18xx:792
!!!COM: Dankowski, Adalbert
!!!COM-rismid: pe30000793
!!!CDT: ~1760-~1836
!!!CNT: Polish
!!!OPR: Vesperae D
!!!OTL: Laetatus sum
!!!OMV: 003
!!!PDT:
!!!AGN: Sacred; Vespers
!!!SMS-siglum: PL-CZ
!!!SMS-shelfmark: III-111
!!!SMS-shelfwork: 001-003 M
!!!SMS-variant:
!!!SMS-altvar:
!!!NIFC-rismid: 300033580
!!!URL-scan: http://repozytorium.nifc.pl/skany/pl-cz-nut--iii-111
!!!ONB-nifc: UWAGA: części Vesperae: Dixit Dominus, Laudate pueri, Laetatus sum, Nisi Dominus, Lauda Jerusalem, Magnificat, Et misericordia, Gloria patri
!!!key: C
**kern	**fba	**dynam	**kern	**dynam	**kern	**dynam	**kern	**text	**kern	**text	**kern	**text	**kern	**text	**kern	**kern
*group4	*	*	*group3	*	*group3	*	*group2	*	*group2	*	*group2	*	*group2	*	*group1	*group1
*part9	*	*part9	*part8	*part8	*part7	*part7	*part6	*part6	*part5	*part5	*part4	*part4	*part3	*part3	*part2	*part1
*staff9	*	*	*staff8	*	*staff7	*	*staff6	*staff6	*staff5	*staff5	*staff4	*staff4	*staff3	*staff3	*staff2	*staff1
*I"Organo	*	*	*I"Violino Secondo	*	*I"Violino Primo	*	*I"Baſso	*	*I"Tenore	*	*I"Alto	*	*I"Canto	*	*I"Cornu Secondo Ex D:	*I"Cornu Primo Ex D:
*I'[Org]	*	*	*I'[Vl 2]	*	*I'[Vl 1]	*	*I'[B]	*	*I'[T]	*	*I'[A]	*	*I'[S]	*	*I'[Cor 2 in D]	*I'[Cor 1 in D]
*Iorgan	*	*	*Ivioln	*	*Ivioln	*	*Ibass	*	*Itenor	*	*Ialto	*	*	*	*Icor	*Icor
*ICklav	*	*	*ICstr	*	*ICstr	*	*ICvox	*	*ICvox	*	*ICvox	*	*	*	*ICbras	*ICbras
*IGcont	*	*	*IGacmp	*	*IGacmp	*	*IGcoro	*	*IGcoro	*	*IGcoro	*	*	*	*IGacmp	*IGacmp
*clefF4	*	*	*clefG2	*	*clefG2	*	*clefF4	*	*clefC4	*	*clefC3	*	*clefC1	*	*clefG2	*clefG2
*	*	*	*	*	*	*	*	*	*	*	*	*	*	*	*Trd0c0	*Trd0c0
*k[]	*	*	*k[]	*	*k[]	*	*k[]	*	*k[]	*	*k[]	*	*k[]	*	*k[]	*k[]
*C:	*	*	*C:	*	*C:	*	*C:	*	*C:	*	*C:	*	*C:	*	*C:	*C:
*M2/4	*	*	*M2/4	*	*M2/4	*	*M2/4	*	*M2/4	*	*M2/4	*	*M2/4	*	*M2/4	*M2/4
!	!	!	!	!	!LO:TX:a:i:t=Solo&colon;	!	!	!	!	!	!	!	!	!	!LO:TX:a:t=Ex C&colon;	!LO:TX:a:t=Ex C&colon;
!LO:TX:a:B:t=allo	!	!	!LO:TX:a:B:t=allo&colon;	!	!LO:TX:a:B:t=allo	!	!LO:TX:a:B:t=allo&colon;	!	!LO:TX:a:B:t=allo&colon;	!	!LO:TX:a:B:t=allo&colon;	!	!LO:TX:a:B:t=allo	!	!LO:TX:a:B:t=allo&colon;	!LO:TX:a:B:t=allo&colon;
8r	.	.	8r	.	8g/	.	8r	.	8r	.	8r	.	8g\	Lae-	8r	8r
=1	=1	=1	=1	=1	=1	=1	=1	=1	=1	=1	=1	=1	=1	=1	=1	=1
!	!	!LO:DY:a:rj:t=pio	!	!LO:DY:a:t=pio&colon;	!LO:TX:a:t=|:problem	!LO:DY:a:rj:t=p&colon;	!	!	!	!	!	!	!LO:TX:a:i:t=Solo.	!	!	!
8C/	.	p	(<16e/LL	p	8cc\L	p	0r	.	0r	.	0r	.	8cc\	-ta-	0r	0r
.	.	.	16g/)	.	.	.	.	.	.	.	.	.	.	.	.	.
!	!	!	!	!	!LO:TX:a:t=|:problem	!	!	!	!	!	!	!	!	!	!	!
8r	.	.	(<16e/	.	8cc\	.	.	.	.	.	.	.	8cc\	-tus	.	.
.	.	.	16g/JJ)	.	.	.	.	.	.	.	.	.	.	.	.	.
!	!	!	!	!	!LO:TX:a:t=|:problem	!	!	!	!	!	!	!	!	!	!	!
8BB/	6 5	.	(<16f/LL	.	8dd\	.	.	.	.	.	.	.	8dd\	ſum	.	.
.	.	.	16g/)	.	.	.	.	.	.	.	.	.	.	.	.	.
!	!	!	!	!	!LO:TX:a:t=|:problem	!	!	!	!	!	!	!	!	!	!	!
8r	.	.	(<16f/	.	8dd\J	.	.	.	.	.	.	.	8dd\	lea-	.	.
.	.	.	16g/JJ)	.	.	.	.	.	.	.	.	.	.	.	.	.
=2	=2	=2	=2	=2	=2	=2	=2-	=2	=2-	=2	=2-	=2	=2	=2	=2-	=2-
8C/	.	.	(<16e/LL	.	(>8.ee\L	.	.	.	.	.	.	.	8.ee\L	-ta-	.	.
.	.	.	16g/)	.	.	.	.	.	.	.	.	.	.	.	.	.
8r	.	.	(<16e/	.	.	.	.	.	.	.	.	.	.	.	.	.
.	.	.	16g/JJ)	.	32ff\LL	.	.	.	.	.	.	.	32ff\LL	.	.	.
.	.	.	.	.	32ee\JJJ)	.	.	.	.	.	.	.	32ee\JJJ	.	.	.
!	!	!	!	!	!LO:TX:a:t=|:problem	!	!	!	!	!	!	!	!	!	!	!
!!mixed beam:problem
!	!	!	!	!	!LO:TX:t=P:problem:mixed beam	!	!	!	!	!	!	!	!	!	!	!
8GG/	.	.	(<16f/LL	.	8dd\L	.	.	.	.	.	.	.	8dd\	-tus	.	.
.	.	.	16d/)	.	.	.	.	.	.	.	.	.	.	.	.	.
!	!	!	!	!	!LO:TX:a:t=|:problem	!	!	!	!	!	!	!	!	!	!	!
8r	.	.	(<16f/	.	8g/J	.	.	.	.	.	.	.	8g\	lae-	.	.
.	.	.	16d/JJ)	.	.	.	.	.	.	.	.	.	.	.	.	.
=3	=3	=3	=3	=3	=3	=3	=3-	=3	=3-	=3	=3-	=3	=3	=3	=3-	=3-
!	!	!	!	!	!LO:TX:a:t=|:problem	!	!	!	!	!	!	!	!	!	!	!
8BB/	6 5	.	(<16d/LL	.	8dd\L	.	.	.	.	.	.	.	8dd\	-ta-	.	.
.	.	.	16f/)	.	.	.	.	.	.	.	.	.	.	.	.	.
!	!	!	!	!	!LO:TX:a:t=|:problem	!	!	!	!	!	!	!	!	!	!	!
8r	.	.	(<16d/	.	8dd\	.	.	.	.	.	.	.	8dd\	-tus	.	.
.	.	.	16f/JJ)	.	.	.	.	.	.	.	.	.	.	.	.	.
!	!	!	!	!	!LO:TX:a:t=|:problem	!	!	!	!	!	!	!	!	!	!	!
8C/	.	.	(<16e/LL	.	8ee\	.	.	.	.	.	.	.	8ee\	ſum	.	.
.	.	.	16g/)	.	.	.	.	.	.	.	.	.	.	.	.	.
!	!	!	!	!	!LO:TX:a:t=|:problem	!	!	!	!	!	!	!	!	!	!	!
8r	.	.	(<16e/	.	8ee\J	.	.	.	.	.	.	.	8ee\	lae-	.	.
.	.	.	16g/JJ)	.	.	.	.	.	.	.	.	.	.	.	.	.
!	!	!	!	!	!	!	!	!	!	!	!	!	!LO:LB:g=original	!	!	!
=4	=4	=4	=4	=4	=4	=4	=4-	=4	=4-	=4	=4-	=4	=4	=4	=4-	=4-
8BB/	6 5	.	(<16f/LL	.	(>8.ff\L	.	.	.	.	.	.	.	8.ff\L	-ta-	.	.
.	.	.	16d/)	.	.	.	.	.	.	.	.	.	.	.	.	.
8r	.	.	(<16f/	.	.	.	.	.	.	.	.	.	.	.	.	.
.	.	.	16d/JJ)	.	32gg\LL	.	.	.	.	.	.	.	32gg\LL	.	.	.
.	.	.	.	.	32ff\JJJ)	.	.	.	.	.	.	.	32ff\JJJ	.	.	.
!	!	!	!	!	!LO:TX:a:t=|:problem	!	!	!	!	!	!	!	!	!	!	!
!	!	!	!	!	!LO:TX:t=P:problem:mixed beam	!	!	!	!	!	!	!	!	!	!	!
8C/	.	.	8e/	.	8ee\L	.	.	.	.	.	.	.	8ee\	-tus	.	.
8r	.	.	8r	.	8g/J	.	.	.	.	.	.	.	8g\	in	.	.
!	!	!	!LO:LB:g=original	!	!	!	!	!	!	!	!	!	!	!	!	!
=5	=5	=5	=5	=5	=5	=5	=5-	=5	=5-	=5	=5-	=5	=5	=5	=5-	=5-
8r	.	.	8r	.	4.cc\	.	1r	.	1r	.	1r	.	4.cc\	his	0r	0r
8E\L	6 x	.	8g/L	.	.	.	.	.	.	.	.	.	.	.	.	.
8E\	.	.	8g/	.	.	.	.	.	.	.	.	.	.	.	.	.
8E\J	6 -5r	.	8g/J	.	8b-X\	.	.	.	.	.	.	.	8b-X\	quae	.	.
!LO:LB:g=original	!	!	!	!	!LO:LB:g=original	!	!	!	!	!	!	!	!	!	!	!
=6	=6	=6	=6	=6	=6	=6	=6-	=6	=6-	=6	=6-	=6	=6	=6	=6-	=6-
!	!	!	!	!	!LO:SIC:v:s:t=16b-	!	!	!	!	!	!	!	!LO:SIC:v:s:t=16b-	!	!	!
8F\L	x 3:	.	8r	.	16b/LL	.	.	.	.	.	.	.	16b\LL	dic-	.	.
.	.	.	.	.	16a/JJ	.	.	.	.	.	.	.	16a\JJ	.	.	.
8F\	.	.	8c/L	.	4a/	.	.	.	.	.	.	.	4a\	-ta	.	.
8F\	.	.	8c/	.	.	.	.	.	.	.	.	.	.	.	.	.
*	*	*	*	*	*	*	*	*	*	*	*	*	*	*ij	*	*
8F\J	.	.	8c/J	.	16bn\LL	.	.	.	.	.	.	.	16bn\LL	quae	.	.
.	.	.	.	.	16cc\JJ	.	.	.	.	.	.	.	16cc\JJ	.	.	.
=7	=7	=7	=7	=7	=7	=7	=7-	=7	=7-	=7	=7-	=7	=7	=7	=7-	=7-
8r	.	.	8r	.	(>16cc#X\LL	.	2r	.	2r	.	2r	.	16cc#X\LL	dic-	.	.
.	.	.	.	.	16dd\JJ)	.	.	.	.	.	.	.	16dd\JJ	.	.	.
8F\L	6 x	.	8a/L	.	(>4dd\	.	.	.	.	.	.	.	4dd\	-ta	.	.
8F\	.	.	8a/	.	.	.	.	.	.	.	.	.	.	.	.	.
*	*	*	*	*	*	*	*	*	*	*	*	*	*	*Xij	*	*
8F#X\J	5 x	.	8a/J	.	8ccn\)	.	.	.	.	.	.	.	8ccn\	ſunt	.	.
=8	=8	=8	=8	=8	=8	=8	=8	=8	=8	=8	=8	=8	=8	=8	=8	=8
!!mixed beam:problem
!LO:TX:t=P:problem:mixed beam	!	!	!	!	!	!	!	!	!	!	!	!	!	!	!	!
8G\L	x 4	.	8e/L	.	8cc\L	.	4r	.	4r	.	4r	.	8cc\	mi-	.	.
8G\	x 3	.	8d/J	.	8b\J	.	.	.	.	.	.	.	8b\	-hi	.	.
!	!	!	!	!LO:DY:a:t=for&colon;	!	!LO:DY:a:t=for&colon;	!	!	!	!	!	!	!	!	!	!
8GG/J	.	.	8r	f	8r	f	8r	.	8r	.	8r	.	8r	.	.	.
!LO:TX:a:t=|:problem	!	!	!	!	!	!	!	!	!	!	!	!	!	!	!	!
!LO:TX:a:i:t=tutti	!	!	!LO:TX:b:t=|:problem	!	!LO:TX:b:t=|:problem	!	!	!	!	!	!	!	!	!	!	!
8G\	.	.	8g/	.	8g/	.	8G\	In	8G/	In	8g\	In	8g\	in	.	.
!	!	!	!	!	!	!	!	!	!	!	!	!	!LO:LB:g=original	!	!	!
=9	=9	=9	=9	=9	=9	=9	=9	=9	=9	=9	=9	=9	=9	=9	=9	=9
!LO:TX:a:t=|:problem	!	!	!LO:TX:b:t=|:problem	!	!LO:TX:b:t=|:problem	!	!	!	!	!	!	!	!	!	!	!
8A\L	.	.	8a/L	.	8a/L	.	8A\L	Do-	8A/L	Do-	8a\L	Do-	8a\L	Do-	2r	2r
!LO:TX:a:t=|:problem	!	!	!LO:TX:b:t=|:problem	!	!LO:TX:b:t=|:problem	!	!	!	!	!	!	!	!	!	!	!
8G\	.	.	8g/	.	8g/	.	8G\J	.	8G/J	.	8g\J	.	8g\J	.	.	.
!LO:TX:a:t=|:problem	!	!	!LO:TX:b:t=|:problem	!	!LO:TX:b:t=|:problem	!	!	!	!	!	!	!	!	!	!	!
8A\	.	.	8a/	.	8a/	.	8A\L	-mum	8A\L	-mum	8a\L	-mum	8a\L	-mum	.	.
!LO:TX:a:t=|:problem	!	!	!LO:TX:b:t=|:problem	!	!LO:TX:b:t=|:problem	!	!	!	!	!	!	!	!	!	!	!
8B\J	.	.	8b/J	.	8b/J	.	8B\J	.	8B\J	.	8b\J	.	8b\J	.	.	.
=10	=10	=10	=10	=10	=10	=10	=10	=10	=10	=10	=10	=10	=10	=10	=10	=10
!LO:TX:a:t=|:problem	!	!	!LO:TX:a:t=|:problem	!	!	!	!	!	!	!	!	!	!	!	!	!
8.c\L	.	.	8.cc\L	.	(>8.cc\L	.	8.c\	Do-	8.c\	Do-	8.cc\	Do-	8.cc\	Do-	4r	4r
(>32e\LL	.	.	(>32ee\LL	.	32ee\LL	.	32e\LLL	-mi-	32e\LLL	-mi-	32ee\LLL	-mi-	32ee\LLL	-mi-	.	.
32d\JJJ)	.	.	32dd\JJJ)	.	32dd\JJJ)	.	32d\JJJ	.	32d\JJJ	.	32dd\JJJ	.	32dd\JJJ	.	.	.
!LO:TX:a:t=|:problem	!	!	!	!	!LO:TX:a:t=|:problem	!	!	!	!	!	!	!	!	!	!	!
8c\L	.	.	8cc\L	.	8cc\L	.	8c\	-ni	8c\	-ni	8cc\	-ni	8cc\	-ni	8r	8r
*	*	*	*	*	*	*	*	*ij	*	*ij	*	*ij	*	*ij	*	*
!	!	!	!	!	!LO:TX:a:t=|:problem	!	!	!	!	!	!	!	!	!	!	!
8E\J	6 x	.	8g\J	.	8cc\J	.	8E\	Do-	8c\	Do-	8g\	Do-	8cc\	Do-	8cc\	8ee\
=11	=11	=11	=11	=11	=11	=11	=11	=11	=11	=11	=11	=11	=11	=11	=11	=11
!!mixed beam:problem
!LO:TX:t=P:problem:mixed beam	!	!	!	!	!	!	!	!	!	!	!	!	!	!	!	!
8F\L	6: x	.	8a/L	.	(>8dd\L	.	8F\	-mi-	8A\	-mi-	8a\	-mi-	8dd\	-mi-	4dd\	4ff\
8F\	.	.	8f/	.	16ff\L	.	8F\	-ni	8A\	-ni	16a\LL	-ni	16ff\LL	-ni	.	.
*	*	*	*	*	*	*	*	*Xij	*	*Xij	*	*Xij	*	*Xij	*	*
.	.	.	.	.	16dd\JJ)	.	.	.	.	.	16f\JJ	.	16dd\JJ	.	.	.
!	!	!	!	!	!	!	!LO:LB:g=original	!	!LO:LB:g=original	!	!LO:LB:g=original	!	!	!	!	!
!	!	!	!	!	!LO:TX:a:t=|:problem	!	!	!	!	!	!	!	!	!	!	!
8G\	4 x	.	8e/	.	8cc\L	.	8G\	i-	8G/	i-	8e\	i-	8cc\	i-	8cc\L	8ee\L
!	!	!	!	!	!LO:TX:a:t=|:problem	!	!	!	!	!	!	!	!	!	!	!
8GG\J	x 3	.	8d/J	.	8b\J	.	8GG/	-bi-	8G/	-bi-	8d\	-bi-	8b\	-bi-	8g\J	8dd\J
!	!	!	!LO:LB:g=original	!	!LO:PB:g=original	!	!	!	!	!	!	!	!	!	!	!
=12	=12	=12	=12	=12	=12	=12	=12	=12	=12	=12	=12	=12	=12	=12	=12	=12
*tremolo	*	*	*	*	*	*	*	*	*	*	*	*	*	*	*	*2\right
8C/L	.	.	16e/LL	.	8cc\L	.	4C/	-mus	4G/	-mus	4e\	-mus	4cc\	-mus	4e/	2cc\
.	.	.	16e/	.	.	.	.	.	.	.	.	.	.	.	.	.
8C/	.	.	16e/	.	16cc\L	.	.	.	.	.	.	.	.	.	.	.
.	.	.	16e/JJ	.	16dd\JJ	.	.	.	.	.	.	.	.	.	.	.
*	*	*	*tremolo	*	*	*	*	*	*	*	*	*	*	*	*	*
8C/	.	.	16g/LL	.	8ee\L	.	8c\	ſtan-	8c\	ſtan-	8g\	ſtan-	8ee\	ſtan-	4c/	.
.	.	.	16g/	.	.	.	.	.	.	.	.	.	.	.	.	.
8C/J	.	.	16g/	.	8ee\J	.	8c\	-tes	8c\	-tes	8g\	-tes	8ee\	-tes	.	.
.	.	.	16g/JJ	.	.	.	.	.	.	.	.	.	.	.	.	.
*Xtremolo	*	*	*	*	*	*	*	*	*	*	*	*	*	*	*	*
!LO:LB:g=original	!	!	!	!	!	!	!	!	!	!	!	!	!	!	!	!
=13	=13	=13	=13	=13	=13	=13	=13	=13	=13	=13	=13	=13	=13	=13	=13	=13
8C/L	6 4	.	16a/LL	.	8.ff\L	.	4c\	e-	4c\	e-	4a\	e-	4ff\	e-	2c/	2cc\
.	.	.	16a/	.	.	.	.	.	.	.	.	.	.	.	.	.
8C/	.	.	16a/	.	.	.	.	.	.	.	.	.	.	.	.	.
.	.	.	16a/JJ	.	32gg\LL	.	.	.	.	.	.	.	.	.	.	.
.	.	.	.	.	32ff\JJJ	.	.	.	.	.	.	.	.	.	.	.
.	.	.	.	.	8qff/	.	.	.	.	.	.	.	.	.	.	.
8C/	5 3	.	16g/LL	.	8ee\L	.	4c\	-rant	4c\	-rant	4g\	-rant	4ee\	-r(an)t	.	.
.	.	.	16g/	.	.	.	.	.	.	.	.	.	.	.	.	.
8C/J	.	.	16g/	.	16dd\L	.	.	.	.	.	.	.	.	.	.	.
.	.	.	16g/JJ	.	16cc\JJ	.	.	.	.	.	.	.	.	.	.	.
!	!	!	!	!	!	!	!	!	!	!	!	!	!LO:LB:g=original	!	!	!
=14	=14	=14	=14	=14	=14	=14	=14	=14	=14	=14	=14	=14	=14	=14	=14	=14
*tremolo	*	*	*	*	*	*	*	*	*	*	*	*	*	*	*	*
8BB/L	6 5	.	16g/LL	.	16b\LL	.	4B\	pe-	4B\	pe-	4f\	pe-	4dd\	pe-	2g/	4dd\
.	.	.	16g/	.	16dd\J	.	.	.	.	.	.	.	.	.	.	.
8BB/	.	.	16g/	.	8.dd\J	.	.	.	.	.	.	.	.	.	.	.
.	.	.	16g/JJ	.	.	.	.	.	.	.	.	.	.	.	.	.
8BB/	.	.	16dd\LL	.	.	.	4B\	-des	4G/	-des	4f\	-des	4dd\	-des	.	8dd\L
.	.	.	16dd\	.	16ee\LL	.	.	.	.	.	.	.	.	.	.	.
8BB/J	.	.	16dd\	.	16ff\	.	.	.	.	.	.	.	.	.	.	8gg\J
.	.	.	16dd\JJ	.	16gg\JJ	.	.	.	.	.	.	.	.	.	.	.
*Xtremolo	*	*	*Xtremolo	*	*	*	*	*	*	*	*	*	*	*	*	*
=15	=15	=15	=15	=15	=15	=15	=15	=15	=15	=15	=15	=15	=15	=15	=15	=15
8C/L	x 4	.	8.dd\L	.	8.ff\L	.	4c\	No-	4G/	No-	4f\	No-	4dd\	No-	4dd\	4ff\
8C/	.	.	.	.	.	.	.	.	.	.	.	.	.	.	.	.
.	.	.	32cc\LL	.	32ee\LL	.	.	.	.	.	.	.	.	.	.	.
.	.	.	32dd\JJJ	.	32ff\JJJ	.	.	.	.	.	.	.	.	.	.	.
8C/	x 3	.	8cc\L	.	16ee\LL	.	8C/	-ſtri	8G/	-ſtri	8e\	-ſtri	8cc\	-ſtri	8cc\	8ee\
.	.	.	.	.	16cc\	.	.	.	.	.	.	.	.	.	.	.
8C/J	.	.	8g\J	.	16b\	.	8C/	in	8G/	in	8g\	in	8cc\	in	8r	8r
.	.	.	.	.	16cc\JJ	.	.	.	.	.	.	.	.	.	.	.
=16	=16	=16	=16	=16	=16	=16	=16	=16	=16	=16	=16	=16	=16	=16	=16	=16
8F\L	6 3	.	8a/L	.	(>16cc#X\LL	.	4F\	a-	4A\	a-	4a\	a-	4dd\	a-	1r	1r
.	.	.	.	.	16dd\J)	.	.	.	.	.	.	.	.	.	.	.
!	!	!	!	!	!LO:TX:a:t=|:problem	!	!	!	!	!	!	!	!	!	!	!
8F\	.	.	8a/	.	8dd\J	.	.	.	.	.	.	.	.	.	.	.
8G\	6 3	.	8b/	.	16r	.	4G\	-tris	4G/	-tris	4b\	-tris	4ee\	-tris	.	.
.	.	.	.	.	(>16ee\LL	.	.	.	.	.	.	.	.	.	.	.
8G\J	.	.	8b/J	.	16dd\	.	.	.	.	.	.	.	.	.	.	.
.	.	.	.	.	16ee\JJ)	.	.	.	.	.	.	.	.	.	.	.
!	!	!	!	!	!LO:LB:g=original	!	!	!	!	!	!LO:LB:g=original	!	!	!	!	!
=17	=17	=17	=17	=17	=17	=17	=17	=17	=17	=17	=17	=17	=17	=17	=17-	=17-
8A\L	6 3	.	8cc\L	.	(>16gg\LL	.	4A\	tu-	4A\	tu-	4cc\	tu-	4ff\	tu-	.	.
.	.	.	.	.	16ff\J)	.	.	.	.	.	.	.	.	.	.	.
!	!	!	!	!	!LO:TX:a:t=|:problem	!	!	!	!	!	!	!	!	!	!	!
8A\	.	.	8cc\	.	8ff\J	.	.	.	.	.	.	.	.	.	.	.
8G\	6 3	.	8b\	.	16r	.	4G\	-is	4B\	-is	4b\	-is	4ee\	-is	.	.
.	.	.	.	.	(>16ee\LL	.	.	.	.	.	.	.	.	.	.	.
8G\J	.	.	8b\J	.	16ff\	.	.	.	.	.	.	.	.	.	.	.
.	.	.	.	.	16ee\JJ)	.	.	.	.	.	.	.	.	.	.	.
!	!	!	!	!	!	!	!LO:LB:g=original	!	!LO:LB:g=original	!	!	!	!	!	!LO:LB:g=original	!LO:LB:g=original
=18	=18	=18	=18	=18	=18	=18	=18	=18	=18	=18	=18	=18	=18	=18	=18	=18
*	*	*	*	*	*	*	*	*	*	*	*	*ij	*	*ij	*	*
8F\L	6 3:	.	8a/L	.	(>16ee\LL	.	4F\	tu-	4A\	tu-	4a\	tu-	4dd\	tu-	8r	8r
.	.	.	.	.	16dd\J)	.	.	.	.	.	.	.	.	.	.	.
!	!	!	!	!	!LO:TX:a:t=|:problem	!	!	!	!	!	!	!	!	!	!	!
8F\	.	.	8a/	.	8dd\J	.	.	.	.	.	.	.	.	.	8dd\L	8ff\L
8F#X\	5 x	.	8a/	.	16r	.	8F#X\	-is	8A\	-is	8a\	-is	8cc\	-is	8cc\	8ee\
.	.	.	.	.	(>16cc\LL	.	.	.	.	.	.	.	.	.	.	.
*	*	*	*	*	*	*	*	*	*	*	*	*Xij	*	*Xij	*	*
8F#\J	.	.	8a/J	.	16dd\	.	8F#\	Je-	8A\	Je-	8a\	Je-	8cc\	Je-	8cc\J	8ee\J
.	.	.	.	.	16cc\JJ)	.	.	.	.	.	.	.	.	.	.	.
!	!	!	!LO:LB:g=original	!	!	!	!	!	!	!	!	!	!	!	!	!
=19	=19	=19	=19	=19	=19	=19	=19	=19	=19	=19	=19	=19	=19	=19	=19	=19
!	!	!	!LO:TX:a:t=P:problem:niejednoznaczny zapis ozdobnika [przyjęto trillo]&colon;global	!	!LO:TX:a:t=P:problem:niejednoznaczny zapis ozdobnika [przyjęto trillo]&colon;global	!	!	!	!	!	!	!	!	!	!	!
!!mixed beam:problem
!LO:TX:t=P:problem:mixed beam	!	!	!LO:TX:a:B:t=t	!	!LO:TX:a:B:t=t	!	!	!	!	!	!	!	!	!	!	!
8G\L	4 x	.	8.e/L	.	8.cc\L	.	8.G\	-ra-	8.G/	-ru-	8.e\	-ru-	8.cc\	-ru-	4cc\	4ee\
8G\	.	.	.	.	.	.	.	.	.	.	.	.	.	.	.	.
.	.	.	32d/LL	.	(>32b\LL	.	16G\	-ſa-	16G/	-ſa-	16e\	-ſa-	16cc\	-ſa-	.	.
.	.	.	32e/JJJ	.	32cc\JJJ)	.	.	.	.	.	.	.	.	.	.	.
8GG/	x 3	.	8d/L	.	8b\L	.	8G\	-lem	8G/	-lem	8d\	-lem	8b\	-lem	4g/	4dd\
!	!	!	!	!	!	!	!	!	!	!	!	!	!LO:LB:g=original	!	!	!
*	*	*	*	*	*	*	*	*ij	*	*ij	*	*ij	*	*	*	*
8G\J	.	.	16d/L	.	16dd\L	.	8G\	Je-	8d\	Je-	8g\	Je-	8b\	Je-	.	.
.	.	.	16g/JJ	.	16gg\JJ	.	.	.	.	.	.	.	.	.	.	.
!LO:LB:g=original	!	!	!	!	!	!	!	!	!	!	!	!	!	!	!	!
=20	=20	=20	=20	=20	=20	=20	=20	=20	=20	=20	=20	=20	=20	=20	=20	=20
*	*	*	*	*	*	*	*	*	*	*	*	*	*	*	*2\right	*
8A\L	6 3	.	16g/LL	.	16gg\LL	.	8A\	-ru-	8.d\	-ru-	8.f#X\	-ra-	8.cc\	-ru-	2dd\	2dd\
.	.	.	16f#X/J	.	16ff#X\J	.	.	.	.	.	.	.	.	.	.	.
8A\	.	.	8f#/J	.	8ff#\J	.	8A\	-ſa-	.	.	.	.	.	.	.	.
.	.	.	.	.	.	.	.	.	16d\	-ſa-	16f#\	-ſa-	16cc\	-ſa-	.	.
8F#X\	6 5	.	16a/LL	.	16aa\LL	.	8F#X\	-lem	8d\	-lem	8a\	-lem	8cc\	-lem	.	.
*	*	*	*	*	*	*	*	*Xij	*	*Xij	*	*Xij	*	*	*	*
.	.	.	16f#/	.	16ff#\	.	.	.	.	.	.	.	.	.	.	.
8F#\J	.	.	16d/	.	16dd\	.	8F#\	quae	8d\	quae	8a\	quae	8cc\	quae	.	.
.	.	.	16c/JJ	.	16cc\JJ	.	.	.	.	.	.	.	.	.	.	.
!	!	!	!	!	!	!	!	!	!	!	!LO:LB:g=original	!	!	!	!	!
=21	=21	=21	=21	=21	=21	=21	=21	=21	=21	=21	=21	=21	=21	=21	=21	=21
8G\L	.	.	16c/LL	.	16cc\LL	.	4G\	ae-	4d\	ae-	4g\	ae-	4b\	ae-	2g/	2dd\
.	.	.	16B/J	.	16b\J	.	.	.	.	.	.	.	.	.	.	.
8G\	.	.	8B/J	.	8b\J	.	.	.	.	.	.	.	.	.	.	.
8B\	6 x	.	16G/LL	.	16g\LL	.	8B\	-di-	8d\	-di-	8g\	-di-	8dd\	-di-	.	.
.	.	.	16B/	.	16b\	.	.	.	.	.	.	.	.	.	.	.
8B\J	.	.	16d/	.	16dd\	.	8B\	-fi-	8d\	-fi-	8g\	-fi-	8dd\	-fi-	.	.
.	.	.	16g/JJ	.	16gg\JJ	.	.	.	.	.	.	.	.	.	.	.
!	!	!	!	!	!LO:LB:g=original	!	!LO:LB:g=original	!	!LO:LB:g=original	!	!	!	!	!	!	!
=22	=22	=22	=22	=22	=22	=22	=22	=22	=22	=22	=22	=22	=22	=22	=22	=22
8A\L	6 3	.	16g/LL	.	16gg\LL	.	4A\	-ca-	4d\	-ca-	4f#X\	-ca-	4cc\	-ca-	2dd\	2dd\
.	.	.	16f#X/J	.	16ff#X\J	.	.	.	.	.	.	.	.	.	.	.
8A\	.	.	8f#/J	.	8ff#\J	.	.	.	.	.	.	.	.	.	.	.
8F#X\	6 5	.	16a/LL	.	16aa\LL	.	8F#X\	-tur	8d\	-tur	8a\	-tur	8cc\	-tur	.	.
.	.	.	16f#/	.	16ff#\	.	.	.	.	.	.	.	.	.	.	.
8F#\J	.	.	16d/	.	16dd\	.	8F#\	ut	8d\	ut	8a\	ut	8cc\	ut	.	.
.	.	.	16c/JJ	.	16cc\JJ	.	.	.	.	.	.	.	.	.	.	.
=23	=23	=23	=23	=23	=23	=23	=23	=23	=23	=23	=23	=23	=23	=23	=23	=23
8G\L	.	.	16c/LL	.	16cc\LL	.	8G\	Ci-	8.d\	Ci-	8g\	Ci-	8b\	Ci-	2g/	2dd\
.	.	.	16B/J	.	16b\J	.	.	.	.	.	.	.	.	.	.	.
8G\	.	.	8B/J	.	8b\J	.	8G\	-vi-	.	.	8g\	-vi-	8b\	-vi-	.	.
.	.	.	.	.	.	.	.	.	16d\	-vi-	.	.	.	.	.	.
8B\	6 x	.	8d/L	.	16r	.	8B\	-tas	8d\	-tas	8g\	-tas	8dd\	-tas	.	.
.	.	.	.	.	16dd\LL	.	.	.	.	.	.	.	.	.	.	.
8B\J	.	.	8d/J	.	16gg\	.	8B\	Cu-	8d\	Cu-	8g\	Cu-	8dd\	Cu-	.	.
.	.	.	.	.	16ffn\JJ	.	.	.	.	.	.	.	.	.	.	.
!	!	!	!LO:LB:g=original	!	!	!	!	!	!	!	!	!	!LO:LB:g=original	!	!	!
=24	=24	=24	=24	=24	=24	=24	=24	=24	=24	=24	=24	=24	=24	=24	=24	=24
*tremolo	*	*	*	*	*	*	*	*	*	*	*	*	*	*	*	*
*2\right	*	*	*	*	*	*	*	*	*	*	*	*	*	*	*	*
8c\L	.	.	8g/L	.	16ff\LL	.	8c\	-jus	8c\	-jus	8g\	-jus	8ee\	-jus	2cc\	2ee\
.	.	.	.	.	16ee\J	.	.	.	.	.	.	.	.	.	.	.
8c\	.	.	8g/	.	8.ee\J	.	8c\	par-	8c\	par-	8g\	par-	8ee\	par-	.	.
8c\	.	.	8g/	.	.	.	8c\	-ti-	8c\	-ti-	8g\	-ti-	8ee\	-ti-	.	.
.	.	.	.	.	16ff#X\LL	.	.	.	.	.	.	.	.	.	.	.
8c\J	.	.	8g/J	.	16gg\	.	8c\	-ci-	8c\	-ci-	8g\	-ci-	8ee\	-ci-	.	.
.	.	.	.	.	16ee\JJ	.	.	.	.	.	.	.	.	.	.	.
!	!	!	!	!	!	!	!	!	!	!	!LO:LB:g=original	!	!	!	!	!
=25	=25	=25	=25	=25	=25	=25	=25	=25	=25	=25	=25	=25	=25	=25	=25	=25
*	*	*	*tremolo	*	*	*	*	*	*	*	*	*	*	*	*	*
8B\L	6 x	.	8g/L	.	16ee\LL	.	4B\	-pa-	4d\	-pa-	4g\	-pa-	4dd\	-pa-	2g/	2dd\
.	.	.	.	.	16dd\J	.	.	.	.	.	.	.	.	.	.	.
8B\	.	.	8g/	.	8.dd\J	.	.	.	.	.	.	.	.	.	.	.
8B\	.	.	8g/	.	.	.	8B\	-ti-	8d\	-ti-	8g\	-ti-	8dd\	-ti-	.	.
.	.	.	.	.	16ee\LL	.	.	.	.	.	.	.	.	.	.	.
8B\J	.	.	8g/J	.	16ff#X\	.	8B\	-o	8d\	-o	8g\	-o	8dd\	-o	.	.
.	.	.	.	.	16gg\JJ	.	.	.	.	.	.	.	.	.	.	.
*Xtremolo	*	*	*Xtremolo	*	*	*	*	*	*	*	*	*	*	*	*	*
=26	=26	=26	=26	=26	=26	=26	=26	=26	=26	=26	=26	=26	=26	=26	=26	=26
8A\L	6 3	.	8cc/L	.	16gg\LL	.	4A\	in	4d\	in	4f#X\	in	4cc\	in	2dd\	2dd\
.	.	.	.	.	16ff#X\J	.	.	.	.	.	.	.	.	.	.	.
8A\	.	.	8cc/	.	8ff#\J	.	.	.	.	.	.	.	.	.	.	.
8F#X\	6 5	.	8a/	.	16aa\LL	.	4F#X\	id-	4d\	id-	4a\	id-	4cc\	id-	.	.
.	.	.	.	.	16ff#\	.	.	.	.	.	.	.	.	.	.	.
8F#\J	.	.	8a/J	.	16dd\	.	.	.	.	.	.	.	.	.	.	.
.	.	.	.	.	16cc\JJ	.	.	.	.	.	.	.	.	.	.	.
!	!	!	!	!	!LO:LB:g=original	!	!LO:LB:g=original	!	!LO:LB:g=original	!	!	!	!	!	!	!
=27	=27	=27	=27	=27	=27	=27	=27	=27	=27	=27	=27	=27	=27	=27	=27	=27
!!mixed beam:problem
!LO:TX:t=P:problem:mixed beam	!	!	!	!	!	!	!LO:TX:t=P:problem:mixed beam	!	!	!	!	!	!	!	!	!
8G\L	.	.	16g/LL	.	16b\LL	.	8G\L	-ip-	8d\L	-ip-	8b\L	-ip-	8dd\L	-ip-	8g\L	8dd\L
.	.	.	16b/	.	16dd\	.	.	.	.	.	.	.	.	.	.	.
8c\	6 x	.	16cc/	.	16ee\	.	8c\	.	8e\J	.	16cc\L	.	16ee\L	.	8cc\	8ee\
.	.	.	16a/JJ	.	16cc\JJ	.	.	.	.	.	16a\JJ	.	16cc\JJ	.	.	.
8d\	4 x	.	8g/L	.	8b/L	.	8d\	.	4d\	.	8g\L	.	8b\L	.	8dd\	8dd\
!	!	!	!	!	!LO:TX:a:B:t=t	!	!	!	!	!	!	!	!	!	!	!
8D/J	# x	.	8f#X/J	.	8a/J	.	8D/J	.	.	.	8f#X\J	.	8a\J	.	8dd\J	8dd\J
!LO:LB:g=original	!	!	!	!	!	!	!	!	!	!	!	!	!	!	!	!
=28	=28	=28	=28	=28	=28	=28	=28	=28	=28	=28	=28	=28	=28	=28	=28	=28
!LO:TX:a:i:t=Solo:rj	!	!	!LO:TX:a:i:t=Solo	!	!LO:TX:a:t=S&colon;	!	!	!	!	!	!	!	!	!	!	!
4G\	.	.	16g/LL	.	16b\LL	.	4G\	-ſum	4d\	-ſum	4g\	-ſum	4b\	-ſum	4g/	4dd\
.	.	.	16d/J	.	16dd\J	.	.	.	.	.	.	.	.	.	.	.
!	!	!	!LO:TX:a:i:t=dol&colon;	!	!LO:TX:a:i:t=dol&colon;	!	!	!	!	!	!	!	!	!	!	!
.	.	.	8d/J	.	8dd\J	.	.	.	.	.	.	.	.	.	.	.
4A\	6 x	.	16r	.	16r	.	4r	.	4r	.	4r	.	4r	.	4r	4r
.	.	.	(<16d/LL	.	(>16dd\LL	.	.	.	.	.	.	.	.	.	.	.
.	.	.	16e/	.	16ee\	.	.	.	.	.	.	.	.	.	.	.
.	.	.	16f#X/JJ)	.	16ff#X\JJ)	.	.	.	.	.	.	.	.	.	.	.
=29	=29	=29	=29	=29	=29	=29	=29	=29	=29	=29	=29	=29	=29	=29	=29	=29
!	!	!	!LO:SIC:v:s:t=16f#	!	!LO:SIC:v:s:t=16ff#	!	!	!	!LO:TX:b:t=22:color=gray	!	!	!	!	!	!	!
4B\	6 x	.	(<16f/LL	.	(>16ff\LL	.	0r	.	0r	.	0r	.	0r	.	1r	1r
.	.	.	16g/J)	.	16gg\J)	.	.	.	.	.	.	.	.	.	.	.
!	!	!	!LO:TX:b:t=|:problem	!	!LO:TX:a:t=|:problem	!	!	!	!	!	!	!	!	!	!	!
.	.	.	8g/J	.	8gg\J	.	.	.	.	.	.	.	.	.	.	.
4c\	6 5	.	16r	.	16r	.	.	.	.	.	.	.	.	.	.	.
.	.	.	(<16e/LL	.	(>16ee\LL	.	.	.	.	.	.	.	.	.	.	.
.	.	.	16a/	.	16aa\	.	.	.	.	.	.	.	.	.	.	.
.	.	.	16g/JJ)	.	16gg\JJ)	.	.	.	.	.	.	.	.	.	.	.
!	!	!	!LO:LB:g=original	!	!	!	!	!	!	!	!	!	!	!	!	!
=30	=30	=30	=30	=30	=30	=30	=30-	=30	=30-	=30	=30-	=30	=30-	=30	=30-	=30-
4d\	#: x	.	16g/LL	.	(>16gg\LL	.	.	.	.	.	.	.	.	.	.	.
.	.	.	16f#X/J	.	16ff#X\J)	.	.	.	.	.	.	.	.	.	.	.
!	!	!	!	!	!LO:TX:a:t=|:problem	!	!	!	!	!	!	!	!	!	!	!
.	.	.	8f#/J	.	8ff#\J	.	.	.	.	.	.	.	.	.	.	.
4c\	.	.	16r	.	16r	.	.	.	.	.	.	.	.	.	.	.
.	.	.	(16d/LL	.	(>16dd\LL	.	.	.	.	.	.	.	.	.	.	.
.	.	.	16e/	.	16ee\	.	.	.	.	.	.	.	.	.	.	.
.	.	.	16f#/JJ)	.	16ff#\JJ)	.	.	.	.	.	.	.	.	.	.	.
=31	=31	=31	=31	=31	=31	=31	=31-	=31	=31-	=31	=31-	=31	=31-	=31	=31-	=31-
!	!	!	!	!	!LO:SIC:v:s:t=16ff#	!	!	!	!	!	!	!	!	!	!	!
4B\	6: x	.	(16f#X/LL	.	(>16ff\LL	.	.	.	.	.	.	.	.	.	2r	2r
.	.	.	16g/J)	.	16gg\J)	.	.	.	.	.	.	.	.	.	.	.
!	!	!	!LO:TX:b:t=|:problem	!	!LO:TX:a:t=|:problem	!	!	!	!	!	!	!	!	!	!	!
.	.	.	8g/J	.	8gg\J	.	.	.	.	.	.	.	.	.	.	.
4B\	.	.	16r	.	16r	.	.	.	.	.	.	.	.	.	.	.
.	.	.	(16g/LL	.	(>16gg\LL	.	.	.	.	.	.	.	.	.	.	.
.	.	.	16f#/	.	16ff#X\	.	.	.	.	.	.	.	.	.	.	.
.	.	.	16fn/JJ)	.	16ffn\JJ)	.	.	.	.	.	.	.	.	.	.	.
!	!	!	!	!	!LO:LB:g=original	!	!	!	!	!	!	!	!	!	!LO:LB:g=original	!
=32	=32	=32	=32	=32	=32	=32	=32-	=32	=32-	=32	=32-	=32	=32-	=32	=32	=32
4c\	6 3	.	8e/L	.	8ee\L	.	.	.	.	.	.	.	.	.	8r	8r
!	!	!	!LO:TUP:b:problem:klamra łukowa	!	!LO:TUP:a:problem:klamra łukowa	!	!	!	!	!	!	!	!	!	!	!
.	.	.	24cc/L	.	24ee\L	.	.	.	.	.	.	.	.	.	8cc\L	8ee\L
.	.	.	24b/	.	24dd\	.	.	.	.	.	.	.	.	.	.	.
.	.	.	24a/JJ	.	24cc\JJ	.	.	.	.	.	.	.	.	.	.	.
!!mixed beam:problem
!LO:TX:t=P:problem:mixed beam	!	!	!	!	!	!	!	!	!	!	!	!	!	!	!	!
8d\L	4 x	.	8g/L	.	8b/L	.	.	.	.	.	.	.	.	.	8dd\	8dd\
8D/J	# x	.	8f#X/J	.	8a/J	.	.	.	.	.	.	.	.	.	8dd\J	8dd\J
!	!	!	!	!	!	!	!	!	!	!	!	!	!LO:LB:g=original	!	!	!
=33	=33	=33	=33	=33	=33	=33	=33-	=33	=33-	=33	=33	=33	=33	=33	=33	=33
!	!	!LO:DY:a:rj:t=p&colon;	!	!LO:DY:a:rj:t=p&colon;	!	!LO:DY:a:rj:t=p&colon;	!	!	!	!	!LO:TX:a:t=Solo:rj	!	!LO:TX:a:i:t=Solo&colon;	!	!	!
8G\L	.	p	8g/L	p	8b\L	p	0r	.	0r	.	4.g\	il-	4.b\	Il-	4g/	4dd\
8G\	.	.	8g/	.	8b\	.	.	.	.	.	.	.	.	.	.	.
8G\	.	.	8g/	.	8b\	.	.	.	.	.	.	.	.	.	4r	4r
8G\J	4 2	.	8a/J	.	8cc\J	.	.	.	.	.	16a\LL	-luc	16cc\LL	-luc	.	.
.	.	.	.	.	.	.	.	.	.	.	16f#X\JJ	.	16a\JJ	.	.	.
!	!	!	!	!	!	!	!	!	!	!	!LO:LB:g=original	!	!	!	!	!
=34	=34	=34	=34	=34	=34	=34	=34-	=34	=34-	=34	=34	=34	=34	=34	=34	=34
8r	.	.	8r	.	8r	.	.	.	.	.	4.g\	e-	4.b\	e-	0r	0r
8G\L	x 3	.	8g/L	.	8b\L	.	.	.	.	.	.	.	.	.	.	.
8G\	.	.	8g/	.	8b\	.	.	.	.	.	.	.	.	.	.	.
8G\J	4 2	.	8a/J	.	8cc\J	.	.	.	.	.	8a\	-nim	8cc\	-nim	.	.
!	!	!	!LO:LB:g=original	!	!	!	!	!	!	!	!	!	!	!	!	!
=35	=35	=35	=35	=35	=35	=35	=35-	=35	=35-	=35	=35	=35	=35	=35	=35-	=35-
8r	.	.	8r	.	8r	.	.	.	.	.	4.b\	aſ-	4.dd\	aſ-	.	.
8G\L	x 3:	.	8b\L	.	8dd\L	.	.	.	.	.	.	.	.	.	.	.
8G\	.	.	8b\	.	8dd\	.	.	.	.	.	.	.	.	.	.	.
8G\J	6 4	.	8cc\J	.	8ee\J	.	.	.	.	.	8cc\	-cen-	8ee\	-cen-	.	.
!LO:LB:g=original	!	!	!	!	!	!	!	!	!	!	!	!	!	!	!	!
=36	=36	=36	=36	=36	=36	=36	=36-	=36	=36-	=36	=36	=36	=36	=36	=36-	=36-
8r	.	.	8r	.	8r	.	.	.	.	.	8.b\L	-de-	8.dd\L	-de-	.	.
8G\L	x 3:	.	8b\L	.	8dd\L	.	.	.	.	.	.	.	.	.	.	.
.	.	.	.	.	.	.	.	.	.	.	16a\Jk	.	16cc\Jk	.	.	.
8G\	.	.	8b\	.	8dd\	.	.	.	.	.	4g\	-runt	4b\	-runt	.	.
8G\J	.	.	8b\J	.	8dd\J	.	.	.	.	.	.	.	.	.	.	.
=37	=37	=37	=37	=37	=37	=37	=37-	=37	=37-	=37	=37	=37	=37	=37	=37-	=37-
8r	.	.	8r	.	8r	.	0r	.	0r	.	8.a\L	tri-	8.cc\L	tri-	.	.
8c\L	6 x	.	8a/L	.	8cc\L	.	.	.	.	.	.	.	.	.	.	.
.	.	.	.	.	.	.	.	.	.	.	16b\Jk	.	16dd\Jk	.	.	.
8c\	.	.	8a/	.	8cc\	.	.	.	.	.	8a\	.	8cc\	.	.	.
8c#X\J	5 x	.	8g/J	.	8b\J	.	.	.	.	.	8g\	-bus	8b\	-bus	.	.
=38	=38	=38	=38	=38	=38	=38	=38-	=38	=38-	=38	=38	=38	=38	=38	=38-	=38-
8d\L	4 x	.	8r	.	8r	.	.	.	.	.	8.g\	Do-	8.b\	Do-	0r	0r
8D\	.	.	8g/L	.	8b/L	.	.	.	.	.	.	.	.	.	.	.
.	.	.	.	.	.	.	.	.	.	.	16g\	-mi-	16b\	-mi-	.	.
8D\	x 3:	.	8f#X/	.	8a/	.	.	.	.	.	8f#X\	-ni	8a\	-ni	.	.
8D\J	.	.	8f#/J	.	8a/J	.	.	.	.	.	8r	.	8r	.	.	.
!	!	!	!	!	!LO:LB:g=original	!	!	!	!	!	!LO:LB:g=original	!	!LO:LB:g=original	!	!	!
=39	=39	=39	=39	=39	=39	=39	=39-	=39	=39-	=39	=39	=39	=39	=39	=39-	=39-
8r	.	.	8r	.	8r	.	.	.	.	.	4.f#X\	Teſ-	4.a\	Teſ-	.	.
8D\L	x #	.	8f#X/L	.	8a/L	.	.	.	.	.	.	.	.	.	.	.
8D\	.	.	8f#/	.	8a/	.	.	.	.	.	.	.	.	.	.	.
8D\J	6 4	.	8g/J	.	8b/J	.	.	.	.	.	8g\	-ti-	8b\	-ti-	.	.
=40	=40	=40	=40	=40	=40	=40	=40-	=40	=40-	=40	=40	=40	=40	=40	=40-	=40-
8r	.	.	8r	.	8r	.	.	.	.	.	4.a\	-mo-	4.cc\	-mo-	.	.
8D\L	7: #:	.	8f#X/L	.	8a/L	.	.	.	.	.	.	.	.	.	.	.
8D\	.	.	8f#/	.	8a/	.	.	.	.	.	.	.	.	.	.	.
8D\J	.	.	8f#/J	.	8a/J	.	.	.	.	.	16b\LL	-ni-	16dd\LL	-ni-	.	.
.	.	.	.	.	.	.	.	.	.	.	16a\JJ	.	16cc\JJ	.	.	.
=41	=41	=41	=41	=41	=41	=41	=41-	=41	=41-	=41	=41	=41	=41	=41	=41-	=41-
8r	.	.	8r	.	8r	.	0r	.	0r	.	4.g\	-um	4.b\	-um	.	.
8G\L	x 3	.	8g/L	.	8b\L	.	.	.	.	.	.	.	.	.	.	.
8G\	.	.	8g/	.	8b\	.	.	.	.	.	.	.	.	.	.	.
8G\J	4 2	.	8a/J	.	8cc\J	.	.	.	.	.	8a\	Is-	8cc\	Is-	.	.
!	!	!	!LO:LB:g=original	!	!	!	!	!	!	!	!	!	!	!	!	!
=42	=42	=42	=42	=42	=42	=42	=42-	=42	=42-	=42	=42	=42	=42	=42	=42-	=42-
8r	.	.	8r	.	8r	.	.	.	.	.	4.b\	.	4.dd\	.	0r	0r
8G\L	x 3:	.	8g/	.	8b\L	.	.	.	.	.	.	.	.	.	.	.
8G\	.	.	8g/L	.	8b\	.	.	.	.	.	.	.	.	.	.	.
8G\J	.	.	8g/J	.	8b\J	.	.	.	.	.	16cc\LL	-ra-	16ee\LL	-ra-	.	.
.	.	.	.	.	.	.	.	.	.	.	16b\JJ	.	16dd\JJ	.	.	.
!LO:LB:g=original	!	!	!	!	!	!	!	!	!	!	!	!	!	!	!	!
=43	=43	=43	=43	=43	=43	=43	=43-	=43	=43-	=43	=43	=43	=43	=43	=43-	=43-
4D\	4 #	.	4f#X/	.	4a/	.	.	.	.	.	8.a\	-el	8.cc\	-el	.	.
.	.	.	.	.	.	.	.	.	.	.	32a\LLL	ad	32cc\LLL	ad	.	.
.	.	.	.	.	.	.	.	.	.	.	32b\JJJ	.	32dd\JJJ	.	.	.
4r	.	.	4r	.	4r	.	.	.	.	.	8a\	Con-	8cc\	Con-	.	.
.	.	.	.	.	.	.	.	.	.	.	8a\	-fi-	8cc\	-fi-	.	.
!	!	!	!	!	!	!	!	!	!	!	!LO:LB:g=original	!	!	!	!	!
=44	=44	=44	=44	=44	=44	=44	=44-	=44	=44-	=44	=44	=44	=44	=44	=44-	=44-
8r	.	.	8r	.	8r	.	.	.	.	.	4.a\	-ten-	4.cc\	-ten-	.	.
8F#X\L	6: 5:	.	8a/L	.	8cc\L	.	.	.	.	.	.	.	.	.	.	.
8F#\	.	.	8a/	.	8cc\	.	.	.	.	.	.	.	.	.	.	.
8F#\J	.	.	8a/J	.	8cc\J	.	.	.	.	.	16b\LL	-dum	16dd\LL	-dum	.	.
.	.	.	.	.	.	.	.	.	.	.	16a\JJ	.	16cc\JJ	.	.	.
!	!	!	!	!	!	!	!	!	!	!	!	!	!LO:LB:g=original	!	!	!
=45	=45	=45	=45	=45	=45	=45	=45-	=45	=45-	=45	=45	=45	=45	=45	=45-	=45-
8G\L	.	.	8g/L	.	8b\L	.	0r	.	0r	.	8g\L	no-	8b\L	No-	.	.
8G\	.	.	16a/L	.	16cc\L	.	.	.	.	.	16a\L	.	16cc\L	.	.	.
.	.	.	16b/JJ	.	16dd\JJ	.	.	.	.	.	16b\JJ	.	16dd\JJ	.	.	.
8c\	6: x	.	8cc/L	.	8ee\L	.	.	.	.	.	8cc\	-mi-	8ee\	-mi-	.	.
8c\J	.	.	8a/J	.	8cc\J	.	.	.	.	.	8a\	-ni	8cc\	-ni	.	.
=46	=46	=46	=46	=46	=46	=46	=46-	=46	=46-	=46	=46	=46	=46	=46	=46-	=46-
8d\L	4 x	.	4g/	.	4b/	.	.	.	.	.	4g\	Do-	4b\	Do-	1r	1r
8d\	.	.	.	.	.	.	.	.	.	.	.	.	.	.	.	.
8D\	# x	.	4f#X/	.	4a/	.	.	.	.	.	4f#X\	-mi-	4a\	-mi-	.	.
8D\J	.	.	.	.	.	.	.	.	.	.	.	.	.	.	.	.
!	!	!	!	!	!LO:LB:g=original	!	!	!	!	!	!	!	!	!	!	!
=47	=47	=47	=47	=47	=47	=47	=47-	=47	=47-	=47	=47	=47	=47	=47	=47-	=47-
!	!	!	!	!	!LO:TX:a:i:t=Solo&colon;	!	!	!	!	!	!	!	!	!	!	!
4G\	.	.	4g/	.	8.b\L	.	.	.	.	.	4g\	-ni	4b\	-ni	.	.
.	.	.	.	.	16cc\Jk	.	.	.	.	.	.	.	.	.	.	.
!	!	!	!LO:TX:a:i:t=Solo&colon;	!	!	!	!	!	!	!	!	!	!	!	!	!
8r	.	.	8r	.	16dd\LL	.	.	.	.	.	4r	.	4r	.	.	.
.	.	.	.	.	16ee\	.	.	.	.	.	.	.	.	.	.	.
8G\	.	.	8b\	.	16ff#X\	.	.	.	.	.	.	.	.	.	.	.
.	.	.	.	.	16gg\JJ	.	.	.	.	.	.	.	.	.	.	.
=48	=48	=48	=48	=48	=48	=48	=48-	=48	=48-	=48	=48	=48	=48	=48	=48-	=48-
4G\	6 3	.	4cc\	.	16gg\LL	.	.	.	.	.	1r	.	1r	.	2r	2r
.	.	.	.	.	16ff#X\J	.	.	.	.	.	.	.	.	.	.	.
.	.	.	.	.	8ff#\J	.	.	.	.	.	.	.	.	.	.	.
4F#X\	6 5	.	4a/	.	16aa\LL	.	.	.	.	.	.	.	.	.	.	.
.	.	.	.	.	16ff#\	.	.	.	.	.	.	.	.	.	.	.
.	.	.	.	.	16dd\	.	.	.	.	.	.	.	.	.	.	.
.	.	.	.	.	16cc\JJ	.	.	.	.	.	.	.	.	.	.	.
=49	=49	=49	=49	=49	=49	=49	=49-	=49	=49-	=49	=49-	=49	=49-	=49	=49	=49
4G\	.	.	4b\	.	16cc\LL	.	1r	.	1r	.	.	.	.	.	4r	4r
.	.	.	.	.	16b\J	.	.	.	.	.	.	.	.	.	.	.
.	.	.	.	.	(>8.gg\J	.	.	.	.	.	.	.	.	.	.	.
4B\	6 x	.	4g/	.	.	.	.	.	.	.	.	.	.	.	8r	8r
.	.	.	.	.	16ff#X\LL)	.	.	.	.	.	.	.	.	.	.	.
.	.	.	.	.	16ee\	.	.	.	.	.	.	.	.	.	8g/	8dd\
.	.	.	.	.	16dd\JJ	.	.	.	.	.	.	.	.	.	.	.
!	!	!	!LO:LB:g=original	!	!	!	!	!	!	!	!	!	!	!	!	!
=50	=50	=50	=50	=50	=50	=50	=50-	=50	=50-	=50	=50-	=50	=50-	=50	=50	=50
!	!	!	!	!	!	!	!	!	!	!	!	!	!LO:TX:b:t=Verte	!	!	!
4c\	6 x	.	8a/L	.	8ee\L	.	.	.	.	.	2r	.	2r	.	4cc\	4ee\
!	!	!	!	!	!LO:TUP:a:problem:klamra łukowa	!	!	!	!	!	!	!	!	!	!	!
.	.	.	16cc/L	.	24ee\L	.	.	.	.	.	.	.	.	.	.	.
.	.	.	.	.	24dd\	.	.	.	.	.	.	.	.	.	.	.
.	.	.	16a/JJ	.	.	.	.	.	.	.	.	.	.	.	.	.
.	.	.	.	.	24cc\JJ	.	.	.	.	.	.	.	.	.	.	.
!!mixed beam:problem
!LO:TX:t=P:problem:mixed beam	!	!	!	!	!	!	!	!	!	!	!	!	!	!	!	!
8d\L	4 x	.	8g/L	.	8b\L	.	.	.	.	.	.	.	.	.	4dd\	4dd\
8D/J	# x	.	8f#X/J	.	8a\J	.	.	.	.	.	.	.	.	.	.	.
!LO:LB:g=original	!	!	!	!	!	!	!	!	!	!	!	!	!LO:PB:g=original	!	!	!
=51	=51	=51	=51	=51	=51	=51	=51	=51	=51	=51	=51	=51	=51	=51	=51	=51
!LO:TX:a:i:t=tutti	!	!	!	!LO:DY:a:t=f&colon;	!	!LO:DY:a:rj:t=for&colon;	!	!	!	!	!	!	!	!	!	!
8G\L	.	.	8d/L	f	4.b\	f	8G\	Qu-	8G/	Qu-	8d\	qu-	8b\	Qu-	2g/	2dd\
8G\	.	.	8d/	.	.	.	8G\	-ia	8G/	-ia	8d\	-ia	8b\	-ia	.	.
!LO:TX:a:t=X	!	!	!	!	!	!	!	!	!	!	!	!	!	!	!	!
8Fn\	.	.	8d/	.	.	.	8Fn\	il-	8G/	il-	8d\	il-	8b\	il-	.	.
8F\J	.	.	8d/J	.	16dd\LL	.	8F\	-lic	8G/	-lic	8d\	-lic	8b\	-lic	.	.
.	.	.	.	.	16b\JJ	.	.	.	.	.	.	.	.	.	.	.
!	!	!	!	!	!	!	!	!	!	!	!LO:LB:g=original	!	!	!	!	!
=52	=52	=52	=52	=52	=52	=52	=52	=52	=52	=52	=52	=52	=52	=52	=52	=52
8E/L	6: x	.	8g/L	.	4.cc\	.	4E\	ſe-	4G/	ſe-	4e\	ſe-	4cc\	ſe-	2cc\	2ee\
8E/	.	.	8g/	.	.	.	.	.	.	.	.	.	.	.	.	.
8C/	.	.	8g/	.	.	.	8C/	de-	8G/	-de-	8e\	-de-	8cc\	-de-	.	.
8C/J	.	.	8e/J	.	16ee\LL	.	8C/	-runt	8G/	-runt	8e\	-runt	8cc\	-runt	.	.
.	.	.	.	.	16gg\JJ	.	.	.	.	.	.	.	.	.	.	.
=53	=53	=53	=53	=53	=53	=53	=53	=53	=53	=53	=53	=53	=53	=53	=53	=53
8BB/L	6 5	.	8d/L	.	8.gg\L	.	8BB/	ſe-	8G/	ſe-	8f\	ſe-	8dd\	ſe-	2dd\	2ff\
8BB/	.	.	8d/	.	.	.	8BB/	des	8G/	-des	8f\	-des	8dd\	-des	.	.
.	.	.	.	.	16ff\Jk	.	.	.	.	.	.	.	.	.	.	.
!	!	!	!	!	!	!	!LO:LB:g=original	!	!	!	!	!	!	!	!	!
8GG/	.	.	8b/	.	16dd\LL	.	8GG/	in	8G/	in	8f\	in	8dd\	in	.	.
.	.	.	.	.	16ee\	.	.	.	.	.	.	.	.	.	.	.
!	!	!	!	!	!	!	!	!	!LO:LB:g=original	!	!	!	!	!	!	!
8GG/J	.	.	8b/J	.	16ff\	.	8G\	Ju-	8G/	Ju-	8f\	Ju-	8dd\	Ju-	.	.
.	.	.	.	.	16gg\JJ	.	.	.	.	.	.	.	.	.	.	.
=54	=54	=54	=54	=54	=54	=54	=54	=54	=54	=54	=54	=54	=54	=54	=54	=54
!!mixed beam:problem
!LO:TX:t=P:problem:mixed beam	!	!	!	!	!LO:TX:a:B:t=t	!	!	!	!	!	!	!	!	!	!	!
8C/L	x 4	.	8.dd\L	.	(>8.ff\L	.	8.c\	-di-	8.G/	-di-	8.f\	-di-	8.dd\	-di-	4dd\	4ff\
8C/	.	.	.	.	.	.	.	.	.	.	.	.	.	.	.	.
.	.	.	32cc\LL	.	32ee\LL	.	16C/	-ci-	16G/	-ci-	16f\	-ci-	16dd\	-ci-	.	.
.	.	.	32dd\JJJ	.	32ff\JJJ)	.	.	.	.	.	.	.	.	.	.	.
!!mixed beam:problem
!	!	!	!LO:TX:t=P:problem:mixed beam	!	!	!	!	!	!	!	!	!	!	!	!	!
8C/	x 3	.	8cc\L	.	16ee\LL	.	8C/	-o	8G/	-o	8e\	-o	8cc\	-o	4cc\	8ee\L
.	.	.	.	.	16cc\	.	.	.	.	.	.	.	.	.	.	.
8c\J	.	.	8e/J	.	16ee\	.	(<8c\	ſe-	[<8G/	ſe-	(<8g\	ſe-	(<8ee\	ſe-	.	8gg\J
.	.	.	.	.	16gg\JJ	.	.	.	.	.	.	.	.	.	.	.
=55	=55	=55	=55	=55	=55	=55	=55	=55	=55	=55	=55	=55	=55	=55	=55	=55
8B\L	6 5 3	.	(<16d/LL	.	16gg\LL	.	4B\)	.	4G/]	.	4f\)	.	4dd\)	.	2g/	2gg\
.	.	.	16g/)	.	16ff\J	.	.	.	.	.	.	.	.	.	.	.
!	!	!	!	!	!LO:TX:a:t=P:problem:niejednoznaczny zapis łuku	!	!	!	!	!	!	!	!	!	!	!
8B\	.	.	(<16d/	.	(>8.ff\J	.	.	.	.	.	.	.	.	.	.	.
.	.	.	16g/JJ)	.	.	.	.	.	.	.	.	.	.	.	.	.
8c\	5 3	.	(<16e/LL	.	.	.	4c\	-det	4G/	-det	4e\	-det	4cc\	-det	.	.
.	.	.	16g/)	.	16ee\LL	.	.	.	.	.	.	.	.	.	.	.
8c\J	.	.	(<16e/	.	16dd\)	.	.	.	.	.	.	.	.	.	.	.
.	.	.	16g/JJ)	.	16cc\JJ	.	.	.	.	.	.	.	.	.	.	.
!	!	!	!LO:LB:g=original	!	!	!	!	!	!	!	!LO:LB:g=original	!	!LO:LB:g=original	!	!LO:LB:g=original	!
=56	=56	=56	=56	=56	=56	=56	=56	=56	=56	=56	=56	=56	=56	=56	=56	=56
8d\L	6 3	.	(<16f/LL	.	(>16cc\LL	.	4d\	ſu-	4G/	ſu-	4f\	ſu-	4b\	ſu-	2g/	2gg\
.	.	.	16g/)	.	16b\J)	.	.	.	.	.	.	.	.	.	.	.
!	!	!	!	!	!LO:TX:a:t=P:problem:niejednoznaczny zapis łuku	!	!	!	!	!	!	!	!	!	!	!
8d\	.	.	(<16f/	.	(>8.b\J	.	.	.	.	.	.	.	.	.	.	.
.	.	.	16g/JJ)	.	.	.	.	.	.	.	.	.	.	.	.	.
8c\	5 3	.	(<16e/LL	.	.	.	4c\	-per	4G/	-per	4e\	-per	4cc\	-per	.	.
.	.	.	16g/)	.	16cc\LL	.	.	.	.	.	.	.	.	.	.	.
8c\J	.	.	(<16e/	.	16dd\)	.	.	.	.	.	.	.	.	.	.	.
.	.	.	16g/JJ)	.	16ee\JJ	.	.	.	.	.	.	.	.	.	.	.
!	!	!	!	!	!	!	!	!	!	!	!	!	!	!	!	!LO:LB:g=original
=57	=57	=57	=57	=57	=57	=57	=57	=57	=57	=57	=57	=57	=57	=57	=57	=57
8B\L	6 5 3	.	(<16d/LL	.	(>16gg\LL	.	4B\	Do-	4G/	Do-	4f\	Do-	4dd\	Do-	2g/	2gg\
.	.	.	16g/)	.	16ff\J)	.	.	.	.	.	.	.	.	.	.	.
!	!	!	!	!	!LO:TX:a:t=P:problem:niejednoznaczny zapis łuku	!	!	!	!	!	!	!	!	!	!	!
8B\	.	.	(<16d/	.	(>8.ff\J	.	.	.	.	.	.	.	.	.	.	.
.	.	.	16g/JJ)	.	.	.	.	.	.	.	.	.	.	.	.	.
8c\	5 3	.	(<16e/LL	.	.	.	4c\	-mum	4G/	-mum	4e\	-mum	4cc\	-mum	.	.
.	.	.	16g/)	.	16ee\LL	.	.	.	.	.	.	.	.	.	.	.
8c\J	.	.	(<16e/	.	16dd\)	.	.	.	.	.	.	.	.	.	.	.
.	.	.	16g/JJ)	.	16cc\JJ	.	.	.	.	.	.	.	.	.	.	.
!LO:LB:g=original	!	!	!	!	!	!	!	!	!	!	!	!	!	!	!	!
=58	=58	=58	=58	=58	=58	=58	=58	=58	=58	=58	=58	=58	=58	=58	=58	=58
8d\L	6 3	.	(<16f/LL	.	16cc\LL	.	4d\	Da-	4G/	Da-	4f\	Da-	4b\	Da-	2g/	2gg\
.	.	.	16g/)	.	16b\J	.	.	.	.	.	.	.	.	.	.	.
8d\	.	.	(<16f/	.	[>8b\J	.	.	.	.	.	.	.	.	.	.	.
.	.	.	16g/JJ)	.	.	.	.	.	.	.	.	.	.	.	.	.
!	!	!	!	!	!LO:LB:g=original	!	!	!	!	!	!	!	!	!	!	!
8c\	5 3	.	(<16e/LL	.	16b\LL]	.	8c\	-vid	8G/	-vid	8e\	-vid	8cc\	-vid	.	.
.	.	.	16g/)	.	16cc\	.	.	.	.	.	.	.	.	.	.	.
8c\J	.	.	(<16e/	.	16dd\	.	8c\	Ro-	8G/	Ro-	8e\	Ro-	8cc\	Ro-	.	.
.	.	.	16g/JJ)	.	16ee\JJ	.	.	.	.	.	.	.	.	.	.	.
!	!	!	!	!	!	!	!LO:LB:g=original	!	!	!	!	!	!	!	!	!
=59	=59	=59	=59	=59	=59	=59	=59	=59	=59	=59	=59	=59	=59	=59	=59	=59
8B\L	6: 5:	.	(<16f/LL	.	16ff\LL	.	4B\	-ga-	4G/	-ga-	4f\	-ga-	4dd\	-ga-	4g/	4gg\
.	.	.	16g/J)	.	16gg\J	.	.	.	.	.	.	.	.	.	.	.
8B\	.	.	8.g/J	.	8.gg\J	.	.	.	.	.	.	.	.	.	.	.
8B\	.	.	.	.	.	.	4B\	-te	4G/	-te	4f\	-te	4dd\	-te	4dd\	4ff\
!	!	!	!	!	!LO:TX:a:t=P:problem:niejednoznaczny zapis łuku	!	!	!	!	!	!	!	!	!	!	!
.	.	.	(<16f/LL	.	(>16ff\LL	.	.	.	.	.	.	.	.	.	.	.
8B\J	.	.	16e/	.	16ee\)	.	.	.	.	.	.	.	.	.	.	.
.	.	.	16d/JJ)	.	16dd\JJ	.	.	.	.	.	.	.	.	.	.	.
!	!	!	!	!	!	!	!	!	!LO:LB:g=original	!	!	!	!	!	!	!
=60	=60	=60	=60	=60	=60	=60	=60	=60	=60	=60	=60	=60	=60	=60	=60	=60
8c\L	.	.	16d/LL	.	16dd\LL	.	8c\	quae	8G/	quae	8e\	quae	8cc\	quae	4cc\	4ee\
.	.	.	16c/JJ	.	16cc\JJ	.	.	.	.	.	.	.	.	.	.	.
8c\	.	.	4c/	.	4cc\	.	8c\	ad	8G/	ad	8e\	ad	8cc\	ad	.	.
8E\	6 x	.	.	.	.	.	8E\	pa-	8G/	pa-	8e\	pa-	8cc\	pa-	4ee\	4gg\
8E\J	.	.	(<16e/LL	.	16ee\LL	.	8E\	-cem	8G/	-cem	8e\	-cem	8cc\	-cem	.	.
.	.	.	16g/JJ)	.	16gg\JJ	.	.	.	.	.	.	.	.	.	.	.
!	!	!	!LO:LB:g=original	!	!	!	!	!	!	!	!LO:LB:g=original	!	!	!	!	!
=61	=61	=61	=61	=61	=61	=61	=61	=61	=61	=61	=61	=61	=61	=61	=61	=61
8F\L	6 x	.	(<16g/LL	.	(>16gg\LL	.	4F\	ſunt	4A/	ſunt	4f\	ſunt	4dd\	ſunt	4dd\	4ff\
.	.	.	16f/)	.	16ff\)	.	.	.	.	.	.	.	.	.	.	.
8F\	.	.	(<16e/	.	(>16ee\	.	.	.	.	.	.	.	.	.	.	.
.	.	.	16d/JJ)	.	16dd\JJ)	.	.	.	.	.	.	.	.	.	.	.
8F#X\	5 x	.	(<16f/LL	.	(>16ff\LL	.	4F#X\	Je-	4A/	Je-	4e\	Je-	4cc\	Je-	4cc\	4ee\
.	.	.	16e/)	.	16ee\)	.	.	.	.	.	.	.	.	.	.	.
8F#\J	.	.	(<16d/	.	(>16dd\	.	.	.	.	.	.	.	.	.	.	.
.	.	.	16c/JJ)	.	16cc\JJ)	.	.	.	.	.	.	.	.	.	.	.
!	!	!	!	!	!	!	!	!	!	!	!	!	!LO:LB:g=original	!	!	!
=62	=62	=62	=62	=62	=62	=62	=62	=62	=62	=62	=62	=62	=62	=62	=62	=62
!	!	!	!	!	!LO:TX:a:B:t=t	!	!	!	!	!	!	!	!	!	!	!
8G\L	x 4	.	8.c/L	.	8.cc\L	.	8.G\	-ru-	8.G/	-ru-	8.e\	-ru-	8.cc\	-ru-	4cc\	4ee\
8G\	.	.	.	.	.	.	.	.	.	.	.	.	.	.	.	.
.	.	.	(<32B/LL	.	(>32dd\LL	.	16G\	-ſa-	16G/	-ſa-	16e\	-ſa-	16cc\	-ſa-	.	.
.	.	.	32c/JJJ)	.	32cc\JJJ)	.	.	.	.	.	.	.	.	.	.	.
8G\	x 2	.	16B/LL	.	16b\LL	.	8G\	-lem	8G/	-lem	8d\	-lem	8b\	-lem	4g/	4dd\
.	.	.	16d/	.	16dd\	.	.	.	.	.	.	.	.	.	.	.
8B\J	6 x	.	16g/	.	16gg\	.	8B\	(et)	8G/	(et)	8g\	(et)	8b\ 8dd\	(et)	.	.
.	.	.	[<16f/JJ	.	16ff\JJ	.	.	.	.	.	.	.	.	.	.	.
=63	=63	=63	=63	=63	=63	=63	=63	=63	=63	=63	=63	=63	=63	=63	=63	=63
8c\L	.	.	(<16f/LL]	.	16ff\LL	.	8c\	a-	8c\	a-	8g\	a-	8ee\	a-	4cc\	4ee\
.	.	.	16e/J)	.	16ee\J	.	.	.	.	.	.	.	.	.	.	.
8c\	.	.	8.g/J	.	[>8gg\J	.	8c\	-bun-	8c\	-bun-	8g\	-bun-	8ee\	-bun-	.	.
!	!	!	!	!	!LO:LB:g=original	!	!LO:LB:g=original	!	!	!	!	!	!	!	!	!
8B\	6: x	.	.	.	16gg\LL]	.	8B\	-dan-	8d\	-dan-	8g\	-dan-	8dd\	-dan-	4g/	4dd\
.	.	.	(<16f/LL	.	16ff\	.	.	.	.	.	.	.	.	.	.	.
8B\J	.	.	16e/	.	16ee\	.	8B\	-ti-	8d\	-ti-	8g\	-ti-	8dd\	-ti-	.	.
.	.	.	16d/JJ)	.	16dd\JJ	.	.	.	.	.	.	.	.	.	.	.
=64	=64	=64	=64	=64	=64	=64	=64	=64	=64	=64	=64	=64	=64	=64	=64	=64
8A\L	.	.	(<16d/LL	.	16dd\LL	.	4A\	-a	4c\	-a	4e\	-a	4cc\	-a	4e/	4cc\
.	.	.	16c/JJ)	.	16cc\JJ	.	.	.	.	.	.	.	.	.	.	.
8A\	.	.	4c/	.	4cc\	.	.	.	.	.	.	.	.	.	.	.
8E\	6: x	.	.	.	.	.	8E\	di-	8G/	di-	8e\	di-	8cc\	di-	4cc\	4ee\
8E\J	.	.	(<16e/LL	.	16ee\LL	.	8E\	-li-	8G/	-li-	8e\	-li-	8cc\	-li-	.	.
.	.	.	16g/JJ)	.	16gg\JJ	.	.	.	.	.	.	.	.	.	.	.
!LO:LB:g=original	!	!	!	!	!	!	!	!	!LO:LB:g=original	!	!LO:LB:g=original	!	!	!	!	!
=65	=65	=65	=65	=65	=65	=65	=65	=65	=65	=65	=65	=65	=65	=65	=65	=65
!!mixed beam:problem
!LO:TX:t=P:problem:mixed beam	!	!	!	!	!	!	!	!	!	!	!	!	!	!	!	!
8F\L	6 x	.	8a\L	.	16gg\LL	.	4F\	-gen-	4A/	-gen-	4f\	-gen-	4dd\	-gen-	4dd\	4ff\
.	.	.	.	.	16ff\	.	.	.	.	.	.	.	.	.	.	.
8F\	.	.	8dd\	.	16aa\	.	.	.	.	.	.	.	.	.	.	.
.	.	.	.	.	16ff\JJ	.	.	.	.	.	.	.	.	.	.	.
8G\	4 x	.	8cc\	.	8ee\L	.	8G\	-ti-	8G/	-ti-	8e\	-ti-	8cc\	-ti-	8cc\L	8ee\L
8GG/J	x 3	.	8b\J	.	8dd\J	.	8G\	-bus	8G/	-bus	8d\	-bus	8b\	-bus	8g\J	8dd\J
!	!	!	!LO:LB:g=original	!	!	!	!	!	!	!	!	!	!	!	!	!
=66	=66	=66	=66	=66	=66	=66	=66	=66	=66	=66	=66	=66	=66	=66	=66	=66
8C/	.	.	8cc\	.	16ee\LL	.	4C/	te	4G/	te	4e\	te	4cc\	te	4e/	4cc\
.	.	.	.	.	16dd\	.	.	.	.	.	.	.	.	.	.	.
!LO:TX:a:i:t=Solo&colon;:rj	!	!	!LO:TX:a:i:t=Solo&colon;	!	!	!	!	!	!	!	!	!	!	!	!	!
8r	.	.	8r	.	16ee\	.	.	.	.	.	.	.	.	.	.	.
.	.	.	.	.	16ff\JJ	.	.	.	.	.	.	.	.	.	.	.
8c\L	.	.	8g/L	.	16gg\LL	.	4r	.	4r	.	4r	.	4r	.	4r	4r
.	.	.	.	.	16ee\	.	.	.	.	.	.	.	.	.	.	.
8B\J	6 x	.	8g/J	.	16ff\	.	.	.	.	.	.	.	.	.	.	.
.	.	.	.	.	16dd\JJ	.	.	.	.	.	.	.	.	.	.	.
!	!	!	!	!	!	!	!	!	!	!	!	!	!LO:LB:g=original	!	!LO:LB:g=original	!
=67	=67	=67	=67	=67	=67	=67	=67	=67	=67	=67	=67	=67	=67	=67	=67	=67
!!mixed beam:problem
!LO:TX:t=P:problem:mixed beam	!	!	!	!	!	!	!	!	!LO:TX:b:t=15:color=gray	!	!LO:TX:b:t=33:color=gray	!	!LO:TX:b:t=33:color=gray	!	!	!
8A\L	.	.	8a/L	.	16ee\LL	.	2r	.	0r	.	0r	.	0r	.	8r	8r
.	.	.	.	.	16cc\	.	.	.	.	.	.	.	.	.	.	.
8F\	6 x	.	8a/	.	16ff\	.	.	.	.	.	.	.	.	.	8dd\L	8ff\L
.	.	.	.	.	16dd\JJ	.	.	.	.	.	.	.	.	.	.	.
8G\	4 x	.	8e/	.	8cc\L	.	.	.	.	.	.	.	.	.	8cc\	8ee\
8GG/J	x 3	.	8d/J	.	8b\J	.	.	.	.	.	.	.	.	.	8g\J	8dd\J
!	!	!	!	!	!	!	!	!	!	!	!	!	!	!	!	!LO:LB:g=original
=68	=68	=68	=68	=68	=68	=68	=68	=68	=68-	=68	=68-	=68	=68-	=68	=68	=68
!!mixed beam:problem
!	!	!LO:DY:a:rj:t=p&colon;	!	!LO:DY:a:t=p&colon;	!LO:TX:t=P:problem:mixed beam	!LO:DY:a:rj:t=p&colon;	!LO:TX:i:a:t=Solo&colon;	!	!	!	!	!	!	!	!	!
8C\L	.	p	8e/L	p	8cc\L	p	(>4C/	Fi-	.	.	.	.	.	.	4e/	4cc\
!LO:TX:a:t=|:problem	!	!	!LO:TX:b:t=|:problem	!	!LO:TX:b:t=|:problem	!	!	!	!	!	!	!	!	!	!	!
8C\	.	.	8c/	.	8c/	.	.	.	.	.	.	.	.	.	.	.
!LO:TX:a:t=|:problem	!	!	!LO:TX:b:t=|:problem	!	!LO:TX:b:t=|:problem	!	!	!	!	!	!	!	!	!	!	!
8E\	.	.	8e/	.	8e/	.	8E\)	.	.	.	.	.	.	.	4r	4r
!LO:TX:a:t=|:problem	!	!	!LO:TX:b:t=|:problem	!	!LO:TX:b:t=|:problem	!	!	!	!	!	!	!	!	!	!	!
8G\J	.	.	8g/J	.	8g/J	.	8G\	-at	.	.	.	.	.	.	.	.
!	!	!	!	!	!LO:LB:g=original	!	!LO:LB:g=original	!	!	!	!	!	!	!	!	!
=69	=69	=69	=69	=69	=69	=69	=69	=69	=69-	=69	=69-	=69	=69-	=69	=69	=69
!LO:TX:a:t=|:problem	!	!	!LO:TX:a:t=|:problem	!	!	!	!	!	!	!	!	!	!	!	!	!
8c\L	.	.	8cc\L	.	8cc/L	.	4c\	pax	.	.	.	.	.	.	0r	0r
(<32C/LL	.	.	32c/LL	.	(<32c/LL	.	.	.	.	.	.	.	.	.	.	.
32D/	.	.	32d/	.	32d/	.	.	.	.	.	.	.	.	.	.	.
!	!	!	!LO:TX:a:t=P:problem:niejednoznaczny zapis łuku	!	!	!	!	!	!	!	!	!	!	!	!	!
32E/	.	.	(<32e/	.	32e/	.	.	.	.	.	.	.	.	.	.	.
32D/JJJ)	.	.	32d/JJJ	.	32d/JJJ)	.	.	.	.	.	.	.	.	.	.	.
!	!	!	!	!	!LO:TX:b:t=|:problem	!	!	!	!	!	!	!	!	!	!	!
8C/L	.	.	8c/L)	.	8c/L	.	8r	.	.	.	.	.	.	.	.	.
!LO:TX:b:t=|:problem	!	!	!	!	!LO:TX:b:t=|:problem	!	!	!	!	!	!	!	!	!	!	!
8E/J	.	.	8e/J	.	8e/J	.	8E\	in	.	.	.	.	.	.	.	.
=70	=70	=70	=70	=70	=70	=70	=70	=70	=70-	=70	=70-	=70	=70-	=70	=70-	=70-
!LO:TX:a:t=|:problem	!	!	!	!	!LO:TX:b:t=|:problem	!	!	!	!	!	!	!	!	!	!	!
8F\L	.	.	8f/L	.	8f/L	.	8F\L	Vir-	.	.	.	.	.	.	.	.
!LO:TX:a:t=|:problem	!	!	!	!	!LO:TX:b:t=|:problem	!	!	!	!	!	!	!	!	!	!	!
8E\	.	.	8e/	.	8e/	.	8E\J	.	.	.	.	.	.	.	.	.
!LO:TX:a:t=|:problem	!	!	!	!	!LO:TX:b:t=|:problem	!	!	!	!	!	!	!	!	!	!	!
8D\	.	.	8d/	.	8d/	.	8D\	-tu-	.	.	.	.	.	.	.	.
!LO:TX:a:t=|:problem	!	!	!	!	!LO:TX:b:t=|:problem	!	!	!	!	!	!	!	!	!	!	!
8G\J	.	.	8g/J	.	8g/J	.	8G\	-te	.	.	.	.	.	.	.	.
!LO:PB:g=original	!	!	!	!	!	!	!	!	!	!	!	!	!	!	!	!
=71	=71	=71	=71	=71	=71	=71	=71	=71	=71-	=71	=71-	=71	=71-	=71	=71-	=71-
!LO:TX:a:t=|:problem	!	!	!	!	!LO:TX:b:t=|:problem	!	!	!	!	!	!	!	!	!	!	!
8.E\L	.	.	(<8.e/L	.	8.e/L	.	8.E\L	tu-	0r	.	0r	.	0r	.	.	.
!LO:TX:a:t=|:problem	!	!	!	!	!LO:TX:b:t=|:problem	!	!	!	!	!	!	!	!	!	!	!
16D\Jk	.	.	16d/Jk)	.	16d/Jk	.	16D\Jk	.	.	.	.	.	.	.	.	.
!LO:TX:a:t=|:problem	!	!	!	!	!LO:TX:b:t=|:problem	!	!	!	!	!	!	!	!	!	!	!
8C\L	.	.	8c/L	.	8c/L	.	8C/	-a	.	.	.	.	.	.	.	.
(>16E\L	.	.	16e/L	.	16e/L	.	8r	.	.	.	.	.	.	.	.	.
16G\JJ)	.	.	16g/JJ	.	16g/JJ	.	.	.	.	.	.	.	.	.	.	.
!	!	!	!LO:LB:g=original	!	!	!	!	!	!	!	!	!	!	!	!	!
=72	=72	=72	=72	=72	=72	=72	=72	=72	=72-	=72-	=72-	=72	=72-	=72	=72-	=72-
!LO:TX:a:t=|:problem	!	!	!	!	!	!	!	!	!	!	!	!	!	!	!	!
!!mixed beam:problem
!LO:TX:t=P:problem:mixed beam	!	!	!LO:TX:t=P:problem:mixed beam	!	!LO:TX:t=P:problem:mixed beam	!	!	!	!	!	!	!	!	!	!	!
8c\L	.	.	8cc\L	.	8cc\L	.	8r	.	.	.	.	.	.	.	.	.
!LO:TX:a:t=|:problem	!	!	!	!	!	!	!	!	!	!	!	!	!	!	!	!
8C/J	.	.	8c/J	.	8c/J	.	8G\	(et)	.	.	.	.	.	.	.	.
4r	.	.	4r	.	4r	.	8A\	a-	.	.	.	.	.	.	.	.
.	.	.	.	.	.	.	8B\	-bun-	.	.	.	.	.	.	.	.
=73	=73	=73	=73	=73	=73	=73	=73	=73	=73-	=73	=73-	=73	=73-	=73	=73-	=73-
8r	.	.	8r	.	8r	.	[>4c\	-dan-	.	.	.	.	.	.	0r	0r
8C\L	7 3	.	8G/L	.	8e/L	.	.	.	.	.	.	.	.	.	.	.
8D\	6 3	.	8G/	.	8f/	.	16c\LL]	.	.	.	.	.	.	.	.	.
.	.	.	.	.	.	.	16B\JJ	.	.	.	.	.	.	.	.	.
8E\J	x 3	.	8c/J	.	8g/J	.	16A\LL	-ti-	.	.	.	.	.	.	.	.
.	.	.	.	.	.	.	16B-X\JJ	.	.	.	.	.	.	.	.	.
!	!	!	!	!	!	!	!LO:LB:g=original	!	!	!	!	!	!	!	!	!
=74	=74	=74	=74	=74	=74	=74	=74	=74	=74-	=74	=74-	=74	=74-	=74	=74-	=74-
4F\	x 3	.	4c/	.	4a/	.	8A\	-a	.	.	.	.	.	.	.	.
.	.	.	.	.	.	.	8A\	(et)	.	.	.	.	.	.	.	.
4r	.	.	4r	.	4r	.	8Bn\	a-	.	.	.	.	.	.	.	.
.	.	.	.	.	.	.	8c#X\	-bun-	.	.	.	.	.	.	.	.
=75	=75	=75	=75	=75	=75	=75	=75	=75	=75-	=75	=75-	=75	=75-	=75	=75-	=75-
8r	.	.	8r	.	8r	.	4d\	-dan-	0r	.	0r	.	0r	.	.	.
8D\L	7 #	.	8A/L	.	8f#X/L	.	.	.	.	.	.	.	.	.	.	.
8E\	6 3	.	8A/	.	8g/	.	16d\LL	.	.	.	.	.	.	.	.	.
.	.	.	.	.	.	.	16cn\JJ	.	.	.	.	.	.	.	.	.
8F#X\J	.	.	8d/J	.	8a/J	.	16B\LL	-ti-	.	.	.	.	.	.	.	.
.	.	.	.	.	.	.	16c\JJ	.	.	.	.	.	.	.	.	.
=76	=76	=76	=76	=76	=76	=76	=76	=76	=76-	=76	=76-	=76	=76-	=76	=76-	=76-
4G\	x 3	.	4d/	.	4b\	.	8B\	-a	.	.	.	.	.	.	.	.
.	.	.	.	.	.	.	8B\	(et)	.	.	.	.	.	.	.	.
4r	.	.	4r	.	4r	.	8c\	a-	.	.	.	.	.	.	.	.
.	.	.	.	.	.	.	8d\	-bun-	.	.	.	.	.	.	.	.
!	!	!	!	!	!LO:LB:g=original	!	!	!	!	!	!	!	!	!	!	!
=77	=77	=77	=77	=77	=77	=77	=77	=77	=77-	=77	=77-	=77	=77-	=77	=77-	=77-
8r	.	.	8r	.	8r	.	4e\	-dan-	.	.	.	.	.	.	0r	0r
8E\L	7 #	.	8B/L	.	8g#X/L	.	.	.	.	.	.	.	.	.	.	.
8F\	6 3	.	8B/	.	8a/	.	16e\LL	.	.	.	.	.	.	.	.	.
.	.	.	.	.	.	.	16d\JJ	.	.	.	.	.	.	.	.	.
8G#X\J	x 3	.	8e/J	.	8b/J	.	16c\LL	-ti-	.	.	.	.	.	.	.	.
.	.	.	.	.	.	.	16d\JJ	.	.	.	.	.	.	.	.	.
=78	=78	=78	=78	=78	=78	=78	=78	=78	=78-	=78	=78-	=78	=78-	=78	=78-	=78-
*	*	*	*tremolo	*	*	*	*	*	*	*	*	*	*	*	*	*
8A\L	.	.	8e/L	.	8cc\L	.	4c\	-a	.	.	.	.	.	.	.	.
8A\	.	.	8e/	.	16ee\L	.	.	.	.	.	.	.	.	.	.	.
.	.	.	.	.	16dd\JJ	.	.	.	.	.	.	.	.	.	.	.
!	!	!	!	!	!	!	!LO:LB:g=original	!	!	!	!	!	!	!	!	!
8C\	6: x	.	8e/	.	8cc\L	.	8A\	in	.	.	.	.	.	.	.	.
8C\J	.	.	8e/J	.	8cc\J	.	8A\	tur-	.	.	.	.	.	.	.	.
*	*	*	*Xtremolo	*	*	*	*	*	*	*	*	*	*	*	*	*
!LO:LB:g=original	!	!	!	!	!	!	!	!	!	!	!	!	!	!	!	!
=79	=79	=79	=79	=79	=79	=79	=79	=79	=79-	=79	=79-	=79	=79-	=79	=79-	=79-
8D\L	6 x	.	8f/L	.	8b\L	.	8B\	-ri-	1r	.	0r	.	0r	.	.	.
8D\	.	.	8f/	.	16b\L	.	8B\	-bus	.	.	.	.	.	.	.	.
.	.	.	.	.	16dd\JJ	.	.	.	.	.	.	.	.	.	.	.
8E\	# x	.	8g#X/	.	16cc\LL	.	8.G#X\L	tu-	.	.	.	.	.	.	.	.
.	.	.	.	.	16b\	.	.	.	.	.	.	.	.	.	.	.
8E\J	.	.	8g#/J	.	16a\	.	.	.	.	.	.	.	.	.	.	.
!	!	!	!	!	!	!	!LO:SIC:v:s:t=32F#	!	!	!	!	!	!	!	!	!
.	.	.	.	.	16b\JJ	.	32F\LL	.	.	.	.	.	.	.	.	.
.	.	.	.	.	.	.	32G#\JJJ	.	.	.	.	.	.	.	.	.
!	!	!	!LO:LB:g=original	!	!	!	!	!	!	!	!	!	!	!	!	!
=80	=80	=80	=80	=80	=80	=80	=80	=80	=80-	=80	=80-	=80	=80-	=80	=80-	=80-
8AA/L	.	.	8a/L	.	8cc\L	.	4A\	-is	.	.	.	.	.	.	.	.
8AA/	.	.	8a/	.	16ee\L	.	.	.	.	.	.	.	.	.	.	.
.	.	.	.	.	16dd\JJ	.	.	.	.	.	.	.	.	.	.	.
*	*	*	*	*	*	*	*	*ij	*	*	*	*	*	*	*	*
8C/	6 x	.	8e/	.	8cc\L	.	8C/	in	.	.	.	.	.	.	.	.
8C/J	.	.	8e/J	.	8cc\J	.	8C/	tur-	.	.	.	.	.	.	.	.
=81	=81	=81	=81	=81	=81	=81	=81	=81	=81-	=81	=81-	=81	=81-	=81	=81-	=81-
8D\L	6: x	.	8f/L	.	8b\L	.	8D\	-ri-	2r	.	.	.	.	.	0r	0r
8D\	.	.	8f/	.	16b\L	.	8D\	-bus	.	.	.	.	.	.	.	.
.	.	.	.	.	16dd\JJ	.	.	.	.	.	.	.	.	.	.	.
8E\	# x	.	8g#X/	.	16cc\LL	.	4E\	tu-	.	.	.	.	.	.	.	.
.	.	.	.	.	16b\	.	.	.	.	.	.	.	.	.	.	.
8E\J	.	.	8g#/J	.	16a\	.	.	.	.	.	.	.	.	.	.	.
.	.	.	.	.	16b\JJ	.	.	.	.	.	.	.	.	.	.	.
=82	=82	=82	=82	=82	=82	=82	=82	=82	=82	=82	=82-	=82	=82-	=82	=82-	=82-
!!mixed beam:problem
!LO:TX:t=P:problem:mixed beam	!	!	!	!	!	!	!	!	!LO:TX:b:t=Solo&colon;:rj	!	!	!	!	!	!	!
8AA/L	.	.	8a/L	.	8cc\L	.	4AA/	-is	4r	.	.	.	.	.	.	.
*	*	*	*	*	*	*	*	*Xij	*	*	*	*	*	*	*	*
8A\	.	.	16a/L	.	16cc\L	.	.	.	.	.	.	.	.	.	.	.
.	.	.	16cc/JJ	.	16ee\JJ	.	.	.	.	.	.	.	.	.	.	.
8AA/J	.	.	8a/	.	8cc\	.	4r	.	8A\	pro-	.	.	.	.	.	.
8r	.	.	8r	.	8r	.	.	.	8c\	-pter	.	.	.	.	.	.
!	!	!	!	!	!LO:LB:g=original	!	!LO:LB:g=original	!	!	!	!	!	!	!	!	!
=83	=83	=83	=83	=83	=83	=83	=83	=83	=83	=83	=83-	=83	=83-	=83	=83-	=83-
!	!	!	!	!	!	!	!LO:TX:a:t=17	!	!	!	!	!	!	!	!	!
8r	.	.	8r	.	8r	.	0r	.	(>4e\	Fra-	0r	.	0r	.	.	.
!!mixed beam:problem
!LO:TX:t=P:problem:mixed beam	!	!	!	!	!	!	!	!	!	!	!	!	!	!	!	!
8A\L	.	.	8a/L	.	8cc\L	.	.	.	.	.	.	.	.	.	.	.
8AA/	.	.	8a/	.	8cc\	.	.	.	16d\LL)	.	.	.	.	.	.	.
.	.	.	.	.	.	.	.	.	16c\JJ	.	.	.	.	.	.	.
8A\J	.	.	8a/J	.	8cc\J	.	.	.	16B\LL	-tres	.	.	.	.	.	.
.	.	.	.	.	.	.	.	.	16A\JJ	.	.	.	.	.	.	.
=84	=84	=84	=84	=84	=84	=84	=84-	=84	=84	=84	=84-	=84	=84-	=84	=84-	=84-
!!mixed beam:problem
!LO:TX:t=P:problem:mixed beam	!	!	!	!	!	!	!	!	!	!	!	!	!	!	!	!
8E\L	#: x	.	8g#X/L	.	8b\L	.	.	.	16A/LL	me-	.	.	.	.	.	.
.	.	.	.	.	.	.	.	.	16G#X/JJ	.	.	.	.	.	.	.
8EE/	.	.	16g#/L	.	16b\L	.	.	.	8G#/	-os	.	.	.	.	.	.
.	.	.	16a/JJ	.	16cc\JJ	.	.	.	.	.	.	.	.	.	.	.
!	!	!	!	!	!	!	!	!	!LO:LB:g=original	!	!	!	!	!	!	!
8E\J	.	.	8g#/	.	8b\	.	.	.	16E/LL	(et)	.	.	.	.	.	.
.	.	.	.	.	.	.	.	.	16G#X/JJ	.	.	.	.	.	.	.
8r	.	.	8r	.	8r	.	.	.	16G#\LL	pro-	.	.	.	.	.	.
.	.	.	.	.	.	.	.	.	16B\JJ	.	.	.	.	.	.	.
=85	=85	=85	=85	=85	=85	=85	=85-	=85	=85	=85	=85-	=85	=85-	=85	=85-	=85-
8r	.	.	8r	.	8r	.	.	.	(>4d\	-xi-	.	.	.	.	0r	0r
8E\L	7: #:	.	8g#X/L	.	8b\L	.	.	.	.	.	.	.	.	.	.	.
8G#X\	.	.	8e/	.	8b\	.	.	.	16e\LL)	.	.	.	.	.	.	.
.	.	.	.	.	.	.	.	.	16d\JJ	.	.	.	.	.	.	.
8E\J	.	.	8g#/J	.	8b\J	.	.	.	16c\LL	-mos	.	.	.	.	.	.
.	.	.	.	.	.	.	.	.	16B\JJ	.	.	.	.	.	.	.
!LO:LB:g=original	!	!	!LO:LB:g=original	!	!	!	!	!	!	!	!	!	!	!	!	!
=86	=86	=86	=86	=86	=86	=86	=86-	=86	=86	=86	=86-	=86	=86-	=86	=86-	=86-
!!mixed beam:problem
!LO:TX:t=P:problem:mixed beam	!	!	!	!	!	!	!	!	!	!	!	!	!	!	!	!
8A\L	.	.	8a/L	.	8cc\L	.	.	.	16B\LL	me-	.	.	.	.	.	.
.	.	.	.	.	.	.	.	.	16A\JJ	.	.	.	.	.	.	.
8AA/J	.	.	16a/L	.	16cc\L	.	.	.	8A\	-os	.	.	.	.	.	.
.	.	.	16g#X/JJ	.	16b\JJ	.	.	.	.	.	.	.	.	.	.	.
8r	.	.	8a/L	.	8cc\L	.	.	.	8r	.	.	.	.	.	.	.
8C/	6 x	.	8a/J	.	8ee\J	.	.	.	8e\	pro-	.	.	.	.	.	.
=87	=87	=87	=87	=87	=87	=87	=87	=87-	=87	=87	=87-	=87	=87-	=87	=87-	=87-
!!mixed beam:problem
!LO:TX:t=P:problem:mixed beam	!	!	!	!	!	!	!	!	!	!	!	!	!	!	!	!
8D\L	6: x	.	8f/L	.	8dd\L	.	0r	.	8d\	-xi-	0r	.	0r	.	.	.
8D\	.	.	8f/	.	16dd\L	.	.	.	16f\LL	-mos	.	.	.	.	.	.
.	.	.	.	.	16b\JJ	.	.	.	16d\JJ	.	.	.	.	.	.	.
8E\	4 x	.	8e/	.	8a/L	.	.	.	8c\L	me-	.	.	.	.	.	.
8EE/J	# x	.	8e/J	.	8g#X/J	.	.	.	8B\J	.	.	.	.	.	.	.
=88	=88	=88	=88	=88	=88	=88	=88-	=88	=88	=88	=88-	=88	=88-	=88	=88-	=88-
!!mixed beam:problem
!LO:TX:t=P:problem:mixed beam	!	!	!	!	!	!	!	!	!	!	!	!	!	!	!	!
8AA/L	.	.	8e/L	.	8a\L	.	.	.	4A\	-os	.	.	.	.	.	.
8A\	.	.	8e/	.	16cc\L	.	.	.	.	.	.	.	.	.	.	.
.	.	.	.	.	16dd\JJ	.	.	.	.	.	.	.	.	.	.	.
8AA/J	.	.	8e/J	.	8cc\	.	.	.	8r	.	.	.	.	.	.	.
!	!	!	!	!	!LO:TX:b:t=Verte	!	!	!	!	!	!	!	!	!	!	!
8r	.	.	8r	.	8r	.	.	.	8e\	lo-	.	.	.	.	.	.
!	!	!	!	!	!LO:PB:g=original	!	!	!	!LO:LB:g=original	!	!	!	!	!	!	!
=89	=89	=89	=89	=89	=89	=89	=89-	=89	=89	=89	=89-	=89	=89-	=89	=89-	=89-
!	!	!	!	!	!	!	!	!	!LO:SIC:v:s:t=4.c#	!	!	!	!	!	!	!
8r	.	.	8r	.	8r	.	.	.	4.c\	-que-	.	.	.	.	0r	0r
!!mixed beam:problem
!LO:TX:t=P:problem:mixed beam	!	!	!	!	!	!	!	!	!	!	!	!	!	!	!	!
8AA/L	# x	.	8e/L	.	8cc#X\L	.	.	.	.	.	.	.	.	.	.	.
8A\	.	.	8a/	.	8ee\	.	.	.	.	.	.	.	.	.	.	.
8Gn\J	.	.	8a/J	.	8ee\J	.	.	.	16B\LL	-bar	.	.	.	.	.	.
!	!	!	!	!	!	!	!	!	!LO:SIC:v:s:t=16c#	!	!	!	!	!	!	!
.	.	.	.	.	.	.	.	.	16c\JJ	.	.	.	.	.	.	.
=90	=90	=90	=90	=90	=90	=90	=90-	=90	=90	=90	=90-	=90	=90-	=90	=90-	=90-
!	!	!	!	!	!	!	!	!	!LO:SIC:v:s:t=16c#	!	!	!	!	!	!	!
8r	.	.	8r	.	8r	.	.	.	16c\LL	pa-	.	.	.	.	.	.
.	.	.	.	.	.	.	.	.	16d\JJ	.	.	.	.	.	.	.
8F#X\L	6: x	.	8a/L	.	8dd\L	.	.	.	8d\	-cem	.	.	.	.	.	.
8F#\	.	.	8a/	.	8dd\	.	.	.	8r	.	.	.	.	.	.	.
8F#\J	.	.	8a/J	.	8dd\J	.	.	.	8d\	lo-	.	.	.	.	.	.
=91	=91	=91	=91	=91	=91	=91	=91-	=91	=91	=91	=91-	=91	=91-	=91	=91-	=91-
8r	.	.	8r	.	8r	.	0r	.	4.B\	-que-	0r	.	0r	.	.	.
8G\L	X 3:	.	8d/L	.	8b\L	.	.	.	.	.	.	.	.	.	.	.
8G\	.	.	8g/	.	8dd\	.	.	.	.	.	.	.	.	.	.	.
8Fn\J	.	.	8g/J	.	8dd\J	.	.	.	16A\LL	-bar	.	.	.	.	.	.
.	.	.	.	.	.	.	.	.	16B\JJ	.	.	.	.	.	.	.
=92	=92	=92	=92	=92	=92	=92	=92-	=92	=92	=92	=92-	=92	=92-	=92	=92-	=92-
8r	.	.	8r	.	8r	.	.	.	16B\LL	pa-	.	.	.	.	.	.
.	.	.	.	.	.	.	.	.	16c\JJ	.	.	.	.	.	.	.
8E\L	6: X	.	8g/L	.	8cc\L	.	.	.	8c\	-cem	.	.	.	.	.	.
8E\	.	.	8g/	.	8cc\	.	.	.	8r	.	.	.	.	.	.	.
8E\J	.	.	8g/J	.	8cc\J	.	.	.	8c\	lo-	.	.	.	.	.	.
!LO:LB:g=original	!	!	!LO:LB:g=original	!	!	!	!	!	!	!	!	!	!	!	!	!
=93	=93	=93	=93	=93	=93	=93	=93-	=93	=93	=93	=93-	=93	=93-	=93	=93-	=93-
8F\L	6: x	.	8a/L	.	8cc\L	.	.	.	4.d\	-que-	.	.	.	.	0r	0r
8F\	.	.	8a/	.	8cc\	.	.	.	.	.	.	.	.	.	.	.
8G\	.	.	8b/	.	8dd\	.	.	.	.	.	.	.	.	.	.	.
8G\J	.	.	8b/J	.	8dd\J	.	.	.	8B\	-bar	.	.	.	.	.	.
!	!	!	!	!	!	!	!	!	!LO:LB:g=original	!	!	!	!	!	!	!
=94	=94	=94	=94	=94	=94	=94	=94-	=94	=94	=94	=94-	=94	=94-	=94	=94-	=94-
8A\L	.	.	8cc/L	.	8ee\L	.	.	.	4.c\	pa-	.	.	.	.	.	.
8A\	.	.	8cc/	.	8ee\	.	.	.	.	.	.	.	.	.	.	.
8E\	6 x	.	8g/	.	8cc\	.	.	.	.	.	.	.	.	.	.	.
8E\J	.	.	8g/J	.	8cc\J	.	.	.	8G/	-cem	.	.	.	.	.	.
=95	=95	=95	=95	=95	=95	=95	=95-	=95	=95	=95	=95-	=95	=95-	=95	=95-	=95-
*	*	*	*	*	*	*	*	*	*	*ij	*	*	*	*	*	*
!!mixed beam:problem
!LO:TX:t=P:problem:mixed beam	!	!	!	!	!	!	!	!	!	!	!	!	!	!	!	!
8F\L	6 x	.	8a/L	.	8dd\L	.	0r	.	16A\LL	pa-	0r	.	0r	.	.	.
.	.	.	.	.	.	.	.	.	16d\JJ	.	.	.	.	.	.	.
8F\	.	.	8f/	.	16ff\L	.	.	.	16f\LL	-cem	.	.	.	.	.	.
.	.	.	.	.	16dd\JJ	.	.	.	16d\JJ	.	.	.	.	.	.	.
!	!	!	!	!	!LO:LB:g=original	!	!	!	!	!	!	!	!	!	!	!
*	*	*	*	*	*	*	*	*	*	*Xij	*	*	*	*	*	*
8G\	4 x	.	8e/	.	8cc\L	.	.	.	8c\L	de	.	.	.	.	.	.
8GG/J	x 3	.	8d/J	.	8b\J	.	.	.	8B\J	.	.	.	.	.	.	.
=96	=96	=96	=96	=96	=96	=96	=96-	=96	=96	=96	=96-	=96	=96-	=96	=96-	=96-
!	!	!	!LO:TX:a:i:t=Solo&colon;	!	!LO:TX:a:t=#:rj	!LO:DY:a:rj:t=f&colon;	!	!	!	!	!	!	!	!	!	!
4C/	.	.	8e/L	.	8cc\L	f	.	.	4c\	te	.	.	.	.	.	.
.	.	.	16c/L	.	16cc\L	.	.	.	.	.	.	.	.	.	.	.
.	.	.	16d/JJ	.	16dd\JJ	.	.	.	.	.	.	.	.	.	.	.
8r	.	.	(<16e/LL	.	16ee\LL	.	.	.	4r	.	.	.	.	.	.	.
.	.	.	16f/	.	16ff\	.	.	.	.	.	.	.	.	.	.	.
8C/	.	.	16g/	.	16gg\	.	.	.	.	.	.	.	.	.	.	.
.	.	.	16e/JJ)	.	16ee\JJ	.	.	.	.	.	.	.	.	.	.	.
=97	=97	=97	=97	=97	=97	=97	=97-	=97	=97	=97	=97-	=97	=97-	=97	=97-	=97-
4F\	6 x	.	16e/LL	.	16ee\LL	.	.	.	1r	.	.	.	.	.	1r	1r
.	.	.	16d/J	.	16dd\J	.	.	.	.	.	.	.	.	.	.	.
.	.	.	8.d/J	.	8.dd\J	.	.	.	.	.	.	.	.	.	.	.
4G\	.	.	.	.	.	.	.	.	.	.	.	.	.	.	.	.
.	.	.	(<16B/LL	.	16b\LL	.	.	.	.	.	.	.	.	.	.	.
.	.	.	16c/	.	16cc\	.	.	.	.	.	.	.	.	.	.	.
.	.	.	16d/JJ)	.	16dd\JJ	.	.	.	.	.	.	.	.	.	.	.
=98	=98	=98	=98	=98	=98	=98	=98-	=98	=98-	=98	=98-	=98	=98-	=98	=98-	=98-
4A\	.	.	(<16d/LL	.	16dd\LL	.	.	.	.	.	.	.	.	.	.	.
.	.	.	16c/J)	.	16cc\J	.	.	.	.	.	.	.	.	.	.	.
.	.	.	8.c/J	.	8.cc\J	.	.	.	.	.	.	.	.	.	.	.
4E\	6 x	.	.	.	.	.	.	.	.	.	.	.	.	.	.	.
.	.	.	(<16B/LL	.	16b/LL	.	.	.	.	.	.	.	.	.	.	.
.	.	.	16A/)	.	16a/	.	.	.	.	.	.	.	.	.	.	.
.	.	.	16G/JJ	.	16g/JJ	.	.	.	.	.	.	.	.	.	.	.
!	!	!	!LO:LB:g=original	!	!	!	!	!	!	!	!	!	!	!	!	!
=99	=99	=99	=99	=99	=99	=99	=99-	=99	=99-	=99	=99-	=99	=99-	=99	=99	=99
!!mixed beam:problem
!LO:TX:t=P:problem:mixed beam	!	!	!	!	!	!	!	!	!LO:TX:b:t=Verte	!	!	!	!	!	!	!
8F\L	6: x	.	8A/L	.	16a\LL	.	2r	.	2r	.	2r	.	2r	.	8r	8r
.	.	.	.	.	16dd\	.	.	.	.	.	.	.	.	.	.	.
8F\	.	.	16a/L	.	16ff\	.	.	.	.	.	.	.	.	.	8dd\L	8ff\L
.	.	.	16f/JJ	.	16dd\JJ	.	.	.	.	.	.	.	.	.	.	.
8G\	4 x	.	8e/L	.	8cc\L	.	.	.	.	.	.	.	.	.	8cc\	8ee\
8GG/J	x 3	.	8d/J	.	8b\J	.	.	.	.	.	.	.	.	.	8g\J	8dd\J
!LO:LB:g=original	!	!	!	!	!	!	!	!	!LO:PB:g=original	!	!	!	!	!	!	!
=100	=100	=100	=100	=100	=100	=100	=100	=100	=100	=100	=100	=100	=100	=100	=100	=100
!LO:TX:a:i:t=tutti:rj	!	!	!	!LO:DY:a:rj:t=f&colon;	!	!	!	!	!	!	!	!	!	!	!	!
4C/	.	.	(<8.c/L	f	(>8.cc\L	.	4C/	pro-	4G/	pro-	4e\	pro-	4cc\	pro-	2cc\	2ee\
.	.	.	16e/K)	.	16ee\K)	.	.	.	.	.	.	.	.	.	.	.
!	!	!	!LO:TX:b:t=|:problem	!	!LO:TX:a:t=|:problem	!	!	!	!	!	!	!	!	!	!	!
4E\	6 x	.	8g/	.	8gg\	.	4E\	-pter	4G/	-pter	4e\	-pter	4cc\	-pter	.	.
!	!	!	!LO:TX:b:t=|:problem	!	!LO:TX:a:t=|:problem	!	!	!	!	!	!	!	!	!	!	!
.	.	.	8g/J	.	8gg\J	.	.	.	.	.	.	.	.	.	.	.
=101	=101	=101	=101	=101	=101	=101	=101	=101	=101	=101	=101	=101	=101	=101	=101	=101
4F\	6 x	.	(<8.f/L	.	(>8.ff\L	.	4F\	Do-	4A/	Do-	4f\	Do-	4dd\	Do-	4dd\	4ff\
.	.	.	16d/Jk)	.	16dd\Jk)	.	.	.	.	.	.	.	.	.	.	.
.	.	.	8qc/	.	8qcc/	.	.	.	.	.	.	.	.	.	.	.
4G\	.	.	8B/L	.	(8b\L	.	4G\	-mum	4G/	-mum	4d\	-mum	4b\	-mum	4g/	4dd\
.	.	.	16A/L	.	16a\L	.	.	.	.	.	.	.	.	.	.	.
.	.	.	16B/JJ	.	16b\JJ)	.	.	.	.	.	.	.	.	.	.	.
=102	=102	=102	=102	=102	=102	=102	=102	=102	=102	=102	=102	=102	=102	=102	=102	=102
4c\	.	.	(<8.c/L	.	(>8.cc\L	.	4c\	Do-	4G/	Do-	4e\	Do-	4cc\	Do-	2cc\	2ee\
.	.	.	16e/K)	.	16ee\K)	.	.	.	.	.	.	.	.	.	.	.
!	!	!	!LO:TX:b:t=|:problem	!	!LO:TX:a:t=|:problem	!	!	!	!	!	!	!	!	!	!	!
4E\	6 x	.	8g/	.	8gg\	.	8E\	-mi-	8G/	-mi-	8e\	-mi-	8cc\	-mi-	.	.
!	!	!	!LO:TX:b:t=|:problem	!	!LO:TX:a:t=|:problem	!	!	!	!	!	!	!	!	!	!	!
.	.	.	8g/J	.	8gg\J	.	8E\	-ni	8G/	-ni	8e\	-ni	8cc\	-ni	.	.
!	!	!	!	!	!	!	!	!	!	!	!LO:LB:g=original	!	!	!	!	!
=103	=103	=103	=103	=103	=103	=103	=103	=103	=103	=103	=103	=103	=103	=103	=103	=103
4F\	6 x	.	(<8.f/L	.	8.ff\L	.	4F\	De-	4A/	De-	4f\	De-	4dd\	De-	4dd\	4ff\
.	.	.	16d/Jk)	.	16dd\Jk	.	.	.	.	.	.	.	.	.	.	.
.	.	.	8qc/	.	8qcc/	.	.	.	.	.	.	.	.	.	.	.
4G\	.	.	8B/L	.	8b\L	.	4G\	-i	4G/	-i	4d\	-i	4b\	-i	4g/	4dd\
.	.	.	16A/L	.	16a\L	.	.	.	.	.	.	.	.	.	.	.
.	.	.	16B/JJ	.	16b\JJ	.	.	.	.	.	.	.	.	.	.	.
=104	=104	=104	=104	=104	=104	=104	=104	=104	=104	=104	=104	=104	=104	=104	=104	=104
4C/	.	.	(<8.c/L	.	8.cc\L	.	4c\	No-	4G/	No-	4e\	No-	4cc\	No-	2cc\	2ee\
.	.	.	16e/Jk)	.	16ee\Jk	.	.	.	.	.	.	.	.	.	.	.
4E\	6 3	.	16g/LL	.	16gg\LL	.	8E\	-ſtri	8c\	-ſtri	8g\	-ſtri	8cc\	-ſtri	.	.
!	!	!	!LO:TX:b:t=|:problem	!	!	!	!	!	!	!	!	!	!	!	!	!
.	.	.	16e/	.	16ee\	.	.	.	.	.	.	.	.	.	.	.
.	.	.	(<16d/	.	16dd\	.	8E\	quae-	8c\	quae-	8g\	quae-	8cc\	quae-	.	.
.	.	.	16c/JJ)	.	16cc\JJ	.	.	.	.	.	.	.	.	.	.	.
!	!	!	!LO:LB:g=original	!	!	!	!LO:LB:g=original	!	!	!	!	!	!	!	!LO:LB:g=original	!
=105	=105	=105	=105	=105	=105	=105	=105	=105	=105	=105	=105	=105	=105	=105	=105	=105
4F\	6 3	.	(<16c#X/LL	.	(>16cc#X\LL	.	4F\	-ſi-	4A/	-ſi-	4a\	-ſi-	4dd\	-ſi-	4dd\	4ff\
.	.	.	16d/J)	.	16dd\J)	.	.	.	.	.	.	.	.	.	.	.
!	!	!	!LO:TX:b:t=|:problem	!	!LO:TX:a:t=|:problem	!	!	!	!	!	!	!	!	!	!	!
.	.	.	8d/J	.	8dd\J	.	.	.	.	.	.	.	.	.	.	.
4G\	6 3	.	16r	.	16r	.	4G\	-vi	4G/	-vi	4b\	-vi	4dd\	-vi	4g/	4dd\
!	!	!	!	!	!LO:TX:a:t=|:problem	!	!	!	!	!	!	!	!	!	!	!
.	.	.	(<16f/LL	.	16ff\LL	.	.	.	.	.	.	.	.	.	.	.
!	!	!	!	!	!LO:TX:a:t=|:problem	!	!	!	!	!	!	!	!	!	!	!
.	.	.	16d/	.	16dd\	.	.	.	.	.	.	.	.	.	.	.
!	!	!	!	!	!LO:TX:a:t=|:problem	!	!	!	!	!	!	!	!	!	!	!
.	.	.	16B/JJ)	.	16b\JJ	.	.	.	.	.	.	.	.	.	.	.
!	!	!	!	!	!	!	!	!	!	!	!	!	!LO:LB:g=original	!	!	!
=106	=106	=106	=106	=106	=106	=106	=106	=106	=106	=106	=106	=106	=106	=106	=106	=106
4A\	x 3:	.	(<16B/LL	.	(>16b\LL	.	4A\	bo-	4A/	bo-	4cc\	bo-	4ee\	bo-	4cc\	4ee\
.	.	.	16c/J)	.	16cc\J)	.	.	.	.	.	.	.	.	.	.	.
!	!	!	!LO:TX:b:t=|:problem	!	!LO:TX:a:t=|:problem	!	!	!	!	!	!	!	!	!	!	!
.	.	.	8c/J	.	8cc\J	.	.	.	.	.	.	.	.	.	.	.
!	!	!	!	!	!LO:LB:g=original	!	!	!	!	!	!	!	!	!	!	!
4G\	.	.	16r	.	16r	.	4G\	-na	4G/	-na	4b\	-na	4ee\	-na	4cc\	4ee\
.	.	.	(<16c/LL	.	(>16cc\LL	.	.	.	.	.	.	.	.	.	.	.
.	.	.	16B/	.	16b\	.	.	.	.	.	.	.	.	.	.	.
.	.	.	16B-X/JJ)	.	16b-X\JJ)	.	.	.	.	.	.	.	.	.	.	.
!	!	!	!	!	!	!	!	!	!LO:LB:g=original	!	!	!	!	!	!	!LO:LB:g=original
=107	=107	=107	=107	=107	=107	=107	=107	=107	=107	=107	=107	=107	=107	=107	=107	=107
4F\	6 x	.	8A/L	.	(>16a\LL	.	4F\	ti-	4A/	ti-	8a\L	ti-	4dd\	ti-	4dd\	4ff\
.	.	.	.	.	16dd\	.	.	.	.	.	.	.	.	.	.	.
.	.	.	(<16a/L	.	16ff\	.	.	.	.	.	8f\	.	.	.	.	.
.	.	.	16f/JJ)	.	16dd\JJ)	.	.	.	.	.	.	.	.	.	.	.
!!mixed beam:problem
!LO:TX:t=P:problem:mixed beam	!	!	!LO:TX:b:t=|:problem	!	!	!	!LO:TX:t=P:problem:mixed beam	!	!	!	!	!	!	!	!	!
8G\L	4 x	.	8e/L	.	8cc\L	.	8G\L	.	4G/	.	8e\	.	8cc\L	.	8cc\L	8ee\L
!	!	!	!LO:TX:b:t=Verte	!	!	!	!	!	!	!	!	!	!	!	!	!
!	!	!	!LO:TX:b:t=|:problem	!	!	!	!	!	!	!	!	!	!	!	!	!
8GG/J	x 3	.	8d/J	.	8bn\J	.	8GG/J	.	.	.	8d\J	.	8b\J	.	8g\J	8dd\J
!LO:LB:g=original	!	!	!LO:PB:g=original	!	!	!	!	!	!	!	!	!	!	!	!	!
=108	=108	=108	=108	=108	=108	=108	=108	=108	=108	=108	=108	=108	=108	=108	=108	=108
!LO:TX:a:i:t=Solo&colon;	!	!	!LO:TX:a:i:t=Solo&colon;	!	!LO:TX:a:t=#	!	!	!	!	!	!	!	!	!	!	!
4C/	.	.	8e/L	.	8cc\L	.	4C/	-bi	4G/	-bi	4e\	-bi	4cc\	-bi	4e/	4cc\
.	.	.	32e/LL	.	(>32ee\LL	.	.	.	.	.	.	.	.	.	.	.
.	.	.	32d/	.	32dd\	.	.	.	.	.	.	.	.	.	.	.
.	.	.	32e/	.	32ee\	.	.	.	.	.	.	.	.	.	.	.
.	.	.	32f/JJJ	.	32ff\JJJ)	.	.	.	.	.	.	.	.	.	.	.
8r	.	.	16g/LL	.	16gg\LL	.	4r	.	4r	.	4r	.	4r	.	4r	4r
.	.	.	16a/	.	16aa\	.	.	.	.	.	.	.	.	.	.	.
8C/	.	.	16b/	.	16bb\	.	.	.	.	.	.	.	.	.	.	.
.	.	.	16cc/JJ	.	16ccc\JJ	.	.	.	.	.	.	.	.	.	.	.
=109	=109	=109	=109	=109	=109	=109	=109	=109	=109	=109	=109	=109	=109	=109	=109	=109
4D/	6 3	.	(<8.g/L	.	(>8.gg\L	.	0r	.	1r	.	1r	.	0r	.	2r	2r
.	.	.	16f/Jk)	.	16ff\Jk)	.	.	.	.	.	.	.	.	.	.	.
4BB/	6 5	.	16d/LL	.	16dd\LL	.	.	.	.	.	.	.	.	.	.	.
.	.	.	16e/	.	16ee\	.	.	.	.	.	.	.	.	.	.	.
.	.	.	16f/	.	16ff\	.	.	.	.	.	.	.	.	.	.	.
.	.	.	16g/JJ	.	16gg\JJ	.	.	.	.	.	.	.	.	.	.	.
=110	=110	=110	=110	=110	=110	=110	=110-	=110	=110-	=110	=110-	=110	=110-	=110	=110	=110
4C/	.	.	16f/LL	.	16ff\LL	.	.	.	.	.	.	.	.	.	4r	4r
.	.	.	16e/	.	16ee\	.	.	.	.	.	.	.	.	.	.	.
.	.	.	16d/	.	16dd\	.	.	.	.	.	.	.	.	.	.	.
.	.	.	16e/JJ	.	16ee\JJ	.	.	.	.	.	.	.	.	.	.	.
4E\	6 x	.	8c/L	.	8cc\L	.	.	.	.	.	.	.	.	.	8r	8r
.	.	.	8c/J	.	8cc\J	.	.	.	.	.	.	.	.	.	8cc\	8ee\
=111	=111	=111	=111	=111	=111	=111	=111-	=111	=111-	=111	=111-	=111	=111-	=111	=111	=111
4F\	6 x	.	8d/L	.	8dd\L	.	.	.	2r	.	2r	.	.	.	4dd\	4ff\
.	.	.	16a/L	.	16ff\L	.	.	.	.	.	.	.	.	.	.	.
.	.	.	16f/JJ	.	16dd\JJ	.	.	.	.	.	.	.	.	.	.	.
!	!	!	!	!	!LO:LB:g=original	!	!	!	!	!	!	!	!	!	!	!
!!mixed beam:problem
!LO:TX:t=P:problem:mixed beam	!	!	!	!	!	!	!	!	!	!	!	!	!	!	!	!
8G\L	4 x	.	16f/LL	.	16dd\LL	.	.	.	.	.	.	.	.	.	8cc\L	8ee\L
.	.	.	16e/	.	16cc\	.	.	.	.	.	.	.	.	.	.	.
8GG/J	x 3	.	16e/	.	16cc\	.	.	.	.	.	.	.	.	.	8g\J	8dd\J
.	.	.	16d/JJ	.	16b\JJ	.	.	.	.	.	.	.	.	.	.	.
!	!	!	!	!	!	!	!	!	!	!	!LO:LB:g=original	!	!	!	!	!
=112	=112	=112	=112	=112	=112	=112	=112-	=112	=112	=112	=112	=112	=112-	=112	=112	=112
!	!	!LO:DY:a:rj:t=p&colon;	!	!LO:DY:a:t=p&colon;	!	!LO:DY:a:t=pio&colon;	!	!	!LO:TX:a:i:t=Solo:rj	!	!LO:TX:a:i:t=Solo&colon;	!	!	!	!	!
8C/L	.	p	8e/L	p	8cc\L	p	.	.	4e\	glo-	4g\	glo-	.	.	4e/	4cc\
8C/	.	.	8g/	.	8ee\	.	.	.	.	.	.	.	.	.	.	.
8C/	.	.	8g/	.	8ee\	.	.	.	16c\LL	-ri-	16e\LL	-ri-	.	.	4r	4r
.	.	.	.	.	.	.	.	.	16B\JJ	.	16d\JJ	.	.	.	.	.
8C/J	.	.	8g/J	.	8ee\J	.	.	.	16c\LL	-a	16e\LL	-a	.	.	.	.
.	.	.	.	.	.	.	.	.	16d\JJ	.	16f\JJ	.	.	.	.	.
!	!	!	!LO:LB:g=original	!	!	!	!	!	!	!	!	!	!	!	!	!
=113	=113	=113	=113	=113	=113	=113	=113-	=113	=113	=113	=113	=113	=113-	=113	=113	=113
8r	.	.	8r	.	8r	.	0r	.	4e\	pa-	4g\	pa-	0r	.	0r	0r
8C/L	.	.	8g/L	.	8ee\L	.	.	.	.	.	.	.	.	.	.	.
8C/	.	.	8g/	.	8ee\	.	.	.	8c\	-tri	8e\	-tri	.	.	.	.
8C/J	.	.	8g/J	.	8ee\J	.	.	.	8r	.	8r	.	.	.	.	.
=114	=114	=114	=114	=114	=114	=114	=114-	=114	=114	=114	=114	=114	=114-	=114	=114-	=114-
8r	.	.	8r	.	8r	.	.	.	4e\	glo-	4g\	glo-	.	.	.	.
8C/L	.	.	8g/L	.	8ee\L	.	.	.	.	.	.	.	.	.	.	.
8C/	.	.	8g/	.	8ee\	.	.	.	16f\LL	-ri-	16a\LL	-ri-	.	.	.	.
.	.	.	.	.	.	.	.	.	16e\JJ	.	16g\JJ	.	.	.	.	.
8C/J	.	.	8g/J	.	8ee\J	.	.	.	16d\LL	-a	16f\LL	-a	.	.	.	.
.	.	.	.	.	.	.	.	.	16c\JJ	.	16e\JJ	.	.	.	.	.
=115	=115	=115	=115	=115	=115	=115	=115-	=115	=115	=115	=115	=115	=115-	=115	=115-	=115-
8r	.	.	8r	.	8r	.	.	.	8.c\	fi-	8.e\	fi-	.	.	.	.
!!mixed beam:problem
!LO:TX:t=P:problem:mixed beam	!	!	!	!	!	!	!	!	!	!	!	!	!	!	!	!
8G\L	4 x	.	8e/L	.	8cc\L	.	.	.	.	.	.	.	.	.	.	.
.	.	.	.	.	.	.	.	.	16c\	-li-	16e\	-li-	.	.	.	.
8GG/	x 3	.	8d/	.	8b\	.	.	.	8B\	-o	8d\	-o	.	.	.	.
8GG/J	.	.	8d/J	.	8b\J	.	.	.	8r	.	8r	.	.	.	.	.
!LO:LB:g=original	!	!	!	!	!	!	!	!	!LO:LB:g=original	!	!	!	!	!	!	!
=116	=116	=116	=116	=116	=116	=116	=116-	=116	=116	=116	=116	=116	=116-	=116	=116-	=116-
8r	.	.	8r	.	8r	.	.	.	4.d\	(et)	4.f\	(et)	.	.	.	.
8G\L	.	.	8d/L	.	8b\L	.	.	.	.	.	.	.	.	.	.	.
8G\	.	.	8d/	.	8b\	.	.	.	.	.	.	.	.	.	.	.
8G\J	.	.	8d/J	.	8b\J	.	.	.	16e\LL	ſpi-	16g\LL	ſpi-	.	.	.	.
.	.	.	.	.	.	.	.	.	16d\JJ	.	16f\JJ	.	.	.	.	.
!	!	!	!	!	!	!	!	!	!	!	!LO:LB:g=original	!	!	!	!	!
=117	=117	=117	=117	=117	=117	=117	=117-	=117	=117	=117	=117	=117	=117-	=117	=117-	=117-
8r	.	.	8r	.	8r	.	0r	.	16c\LL	-ri-	16e\LL	-ri-	0r	.	1r	1r
.	.	.	.	.	.	.	.	.	16B\	.	16d\	.	.	.	.	.
8C/L	.	.	8e/L	.	8cc\L	.	.	.	16c\	.	16e\	.	.	.	.	.
.	.	.	.	.	.	.	.	.	16d\JJ	.	16f\JJ	.	.	.	.	.
8C/	.	.	8e/	.	8cc\	.	.	.	8e\	-tu-	8g\	-tu-	.	.	.	.
8C/J	.	.	8e/J	.	8cc\J	.	.	.	8e\	-i	8g\	-i	.	.	.	.
!	!	!	!	!	!LO:LB:g=original	!	!	!	!	!	!	!	!	!	!	!
=118	=118	=118	=118	=118	=118	=118	=118-	=118	=118	=118	=118	=118	=118-	=118	=118-	=118-
!!mixed beam:problem
!LO:TX:t=P:problem:mixed beam	!	!	!	!	!	!	!	!	!	!	!	!	!	!	!	!
8F\L	6 x	.	8f/L	.	8dd\L	.	.	.	8.f\L	ſanc-	8.a\L	ſanc-	.	.	.	.
8F\	.	.	16a/L	.	16ff\L	.	.	.	.	.	.	.	.	.	.	.
.	.	.	16f/JJ	.	16dd\JJ	.	.	.	32e\LL	.	32g\LL	.	.	.	.	.
.	.	.	.	.	.	.	.	.	32d\JJJ	.	32f\JJJ	.	.	.	.	.
8G\	4 x	.	8e/L	.	8cc\L	.	.	.	8c\L	.	8e\L	.	.	.	.	.
8GG/J	x 3	.	8d/J	.	8b\J	.	.	.	8B\J	.	8d\J	.	.	.	.	.
=119	=119	=119	=119	=119	=119	=119	=119-	=119	=119	=119	=119	=119	=119-	=119	=119	=119
!	!	!	!	!	!	!LO:DY:a	!	!	!	!	!	!	!	!	!	!
4C/	.	.	4e/	.	8cc\L	fz	.	.	4c\	-to	4e\	-to	.	.	4r	4r
.	.	.	.	.	(>32ee\LL	.	.	.	.	.	.	.	.	.	.	.
.	.	.	.	.	32dd\	.	.	.	.	.	.	.	.	.	.	.
.	.	.	.	.	32ee\	.	.	.	.	.	.	.	.	.	.	.
.	.	.	.	.	32ff\JJJ)	.	.	.	.	.	.	.	.	.	.	.
8r	.	.	8r	.	16gg\LL	.	.	.	4r	.	4r	.	.	.	8r	8r
.	.	.	.	.	16aa\	.	.	.	.	.	.	.	.	.	.	.
8BB/	6 5	.	8d/	.	16gg\	.	.	.	.	.	.	.	.	.	8g/	8dd\
.	.	.	.	.	16ff\JJ	.	.	.	.	.	.	.	.	.	.	.
!	!	!	!LO:LB:g=original	!	!	!	!	!	!	!	!	!	!	!	!	!
=120	=120	=120	=120	=120	=120	=120	=120-	=120	=120	=120	=120	=120	=120-	=120	=120	=120
!!mixed beam:problem
!LO:TX:t=P:problem:mixed beam	!	!	!LO:TX:t=P:problem:mixed beam	!	!	!	!LO:TX:b:t=Verte	!	!	!	!	!	!	!	!	!
8C\L	.	.	16e/LL	.	16ee\LL	.	.	.	2r	.	2r	.	.	.	8cc\L	8ee\L
.	.	.	16ee\	.	16gg\	.	.	.	.	.	.	.	.	.	.	.
8E\	6 x	.	16ff\	.	16aa\	.	.	.	.	.	.	.	.	.	8dd\	8ff\
.	.	.	16dd\JJ	.	16ff\JJ	.	.	.	.	.	.	.	.	.	.	.
8G\	4 x	.	16dd\LL	.	8ee\L	.	.	.	.	.	.	.	.	.	8cc\	8ee\
.	.	.	16cc\	.	.	.	.	.	.	.	.	.	.	.	.	.
8GG/J	x 3	.	16cc\	.	8dd\J	.	.	.	.	.	.	.	.	.	8g\J	8dd\J
.	.	.	16b\JJ	.	.	.	.	.	.	.	.	.	.	.	.	.
!	!	!	!	!	!	!	!LO:PB:g=original	!	!	!	!	!	!	!	!LO:LB:g=original	!
=121	=121	=121	=121	=121	=121	=121	=121	=121	=121	=121	=121	=121	=121	=121	=121	=121
!LO:TX:a:i:t=tutti	!	!	!	!LO:DY:a:t=for&colon;	!	!	!	!	!	!	!	!	!	!	!	!
8C/L	.	.	16G/LL 16e/	f	8.ee\L	.	4c\	ſi-	4G/	ſi-	4e\	ſi-	4cc\	ſi-	2cc\	2ee\
.	.	.	16G/ 16e/	.	.	.	.	.	.	.	.	.	.	.	.	.
8C/	.	.	16G/ 16e/	.	.	.	.	.	.	.	.	.	.	.	.	.
.	.	.	16G/JJ 16e/	.	16gg\Jk	.	.	.	.	.	.	.	.	.	.	.
*	*	*	*tremolo	*	*	*	*	*	*	*	*	*	*	*	*	*
8C/	.	.	16G/ 16eLL/	.	16ff\LL	.	4c\	-cut	4G/	-cut	4e\	-cut	4cc\	-cut	.	.
.	.	.	16G/ 16e/	.	16ee\	.	.	.	.	.	.	.	.	.	.	.
8C/J	.	.	16G/ 16e/	.	16dd\	.	.	.	.	.	.	.	.	.	.	.
.	.	.	16G/ 16eJJ/	.	16ee\JJ	.	.	.	.	.	.	.	.	.	.	.
!	!	!	!	!	!	!	!	!	!	!	!	!	!	!	!	!LO:LB:g=original
=122	=122	=122	=122	=122	=122	=122	=122	=122	=122	=122	=122	=122	=122	=122	=122	=122
8BB/L	6: 5:	.	16G/ 16dLL/	.	(>8.gg\L	.	4B\	e-	4G/	e-	4f\	e-	4dd\	e-	2g/	2dd\
.	.	.	16G/ 16d/	.	.	.	.	.	.	.	.	.	.	.	.	.
8BB/	.	.	16G/ 16d/	.	.	.	.	.	.	.	.	.	.	.	.	.
.	.	.	16G/ 16dJJ/	.	16ff\Jk)	.	.	.	.	.	.	.	.	.	.	.
!	!	!	!	!	!LO:TX:a:t=|:problem	!	!	!	!	!	!	!	!	!	!	!
8BB/	.	.	16G/ 16dLL/	.	8dd\L	.	4B\	-rat	4G/	-rat	4f\	-rat	4dd\	-rat	.	.
.	.	.	16G/ 16d/	.	.	.	.	.	.	.	.	.	.	.	.	.
!	!	!	!	!	!LO:TX:a:t=|:problem	!	!	!	!	!	!	!	!	!	!	!
8BB/J	.	.	16G/ 16d/	.	8dd\J	.	.	.	.	.	.	.	.	.	.	.
.	.	.	16G/ 16dJJ/	.	.	.	.	.	.	.	.	.	.	.	.	.
!LO:LB:g=original	!	!	!	!	!LO:LB:g=original	!	!	!	!LO:LB:g=original	!	!LO:LB:g=original	!	!	!	!	!
=123	=123	=123	=123	=123	=123	=123	=123	=123	=123	=123	=123	=123	=123	=123	=123	=123
8BB/L	6: 5:	.	16G/ 16fLL/	.	(>8.dd\L	.	4B\	in	4G/	in	4f\	in	4dd\	in	2g/	2dd\
.	.	.	16G/ 16f/	.	.	.	.	.	.	.	.	.	.	.	.	.
8BB/	.	.	16G/ 16f/	.	.	.	.	.	.	.	.	.	.	.	.	.
.	.	.	16G/ 16fJJ/	.	16ff\Jk)	.	.	.	.	.	.	.	.	.	.	.
8BB/	.	.	16G/ 16fLL/	.	16ee\LL	.	4B\	prin-	4G/	prin-	4f\	prin-	4dd\	prin-	.	.
.	.	.	16G/ 16f/	.	16dd\	.	.	.	.	.	.	.	.	.	.	.
8BB/J	.	.	16G/ 16f/	.	16cc\	.	.	.	.	.	.	.	.	.	.	.
.	.	.	16G/ 16fJJ/	.	16dd\JJ	.	.	.	.	.	.	.	.	.	.	.
=124	=124	=124	=124	=124	=124	=124	=124	=124	=124	=124	=124	=124	=124	=124	=124	=124
8C\L	.	.	16G/ 16eLL/	.	(>8.gg\L	.	8.c\	-ci-	8.G/	-ci-	8.e\	-ci-	8.cc\	-ci-	2cc\	2ee\
.	.	.	16G/ 16e/	.	.	.	.	.	.	.	.	.	.	.	.	.
8C\	.	.	16G/ 16e/	.	.	.	.	.	.	.	.	.	.	.	.	.
.	.	.	16G/ 16eJJ/	.	16ee\Jk)	.	16c\	-pi-	16G/	-pi-	16e\	-pi-	16cc\	-pi-	.	.
!	!	!	!	!	!LO:TX:a:t=|:problem	!	!	!	!	!	!	!	!	!	!	!
8E\	6 3	.	16G/ 16eLL/	.	8cc\L	.	8c\	-o	8G/	-o	8e\	-o	8cc\	-o	.	.
.	.	.	16G/ 16e/	.	.	.	.	.	.	.	.	.	.	.	.	.
!	!	!	!	!	!	!	!	!	!	!	!	!	!LO:LB:g=original	!	!	!
!	!	!	!	!	!LO:TX:a:t=|:problem	!	!	!	!	!	!	!	!	!	!	!
8E\J	.	.	16G/ 16e/	.	8cc\J	.	8E\	(et)	8G/	(et)	8e\	(et)	8cc\	(et)	.	.
.	.	.	16G/ 16eJJ/	.	.	.	.	.	.	.	.	.	.	.	.	.
*	*	*	*Xtremolo	*	*	*	*	*	*	*	*	*	*	*	*	*
=125	=125	=125	=125	=125	=125	=125	=125	=125	=125	=125	=125	=125	=125	=125	=125	=125
8F\L	6 3	.	(<16c#X/LL	.	(>16cc#X\LL	.	4F\	nunc	4A/	nunc	4f\	nunc	4dd\	nunc	4dd\	4ff\
.	.	.	16d/J)	.	16dd\J)	.	.	.	.	.	.	.	.	.	.	.
!	!	!	!LO:TX:b:t=|:problem	!	!LO:TX:a:t=|:problem	!	!	!	!	!	!	!	!	!	!	!
8F\	.	.	8d/J	.	8dd\J	.	.	.	.	.	.	.	.	.	.	.
8G\	.	.	16r	.	16r	.	4G\	(et)	4G/	(et)	4d\	(et)	4b\	(et)	4g/	4dd\
.	.	.	(<16d/LL	.	(>16dd\LL	.	.	.	.	.	.	.	.	.	.	.
8G\J	.	.	16e/	.	16ee\	.	.	.	.	.	.	.	.	.	.	.
.	.	.	16d/JJ)	.	16dd\JJ)	.	.	.	.	.	.	.	.	.	.	.
!	!	!	!LO:LB:g=original	!	!	!	!	!	!	!	!	!	!	!	!	!
=126	=126	=126	=126	=126	=126	=126	=126	=126	=126	=126	=126	=126	=126	=126	=126	=126
8A\L	.	.	(<16d/LL	.	(>16dd\LL	.	4A\	ſem-	4A/	ſem-	4e\	ſem-	4cc\	ſem-	4cc\	4ee\
.	.	.	16c/J)	.	16cc\J)	.	.	.	.	.	.	.	.	.	.	.
!	!	!	!LO:TX:b:t=|:problem	!	!LO:TX:a:t=|:problem	!	!	!	!	!	!	!	!	!	!	!
8A\	.	.	8c/J	.	8cc\J	.	.	.	.	.	.	.	.	.	.	.
8E\	6 x	.	16r	.	16r	.	4E\	-per	4G/	-per	4e\	-per	4cc\	-per	4cc\	4ee\
.	.	.	(<16c/LL	.	(>16cc\LL	.	.	.	.	.	.	.	.	.	.	.
8E\J	.	.	16B/	.	16b\	.	.	.	.	.	.	.	.	.	.	.
.	.	.	16c/JJ)	.	16cc\JJ)	.	.	.	.	.	.	.	.	.	.	.
=127	=127	=127	=127	=127	=127	=127	=127	=127	=127	=127	=127	=127	=127	=127	=127	=127
8F\L	6 x	.	(<16c#X/LL	.	(>16cc#X\LL	.	4F\	(et)	4A/	(et)	4f\	(et)	4dd\	(et)	4dd\	4ff\
.	.	.	16d/J)	.	16dd\J)	.	.	.	.	.	.	.	.	.	.	.
!	!	!	!LO:TX:b:t=|:problem	!	!LO:TX:a:t=|:problem	!	!	!	!	!	!	!	!	!	!	!
8F\	.	.	8d/J	.	8dd\J	.	.	.	.	.	.	.	.	.	.	.
8G\	.	.	16r	.	16r	.	4G\	in	4G/	in	4d\	in	4b\	in	4g/	4dd\
.	.	.	(<16d/LL	.	(>16dd\LL	.	.	.	.	.	.	.	.	.	.	.
8G\J	.	.	16e/	.	16ee\	.	.	.	.	.	.	.	.	.	.	.
.	.	.	16d/JJ)	.	16dd\JJ)	.	.	.	.	.	.	.	.	.	.	.
!	!	!	!	!	!LO:LB:g=original	!	!LO:LB:g=original	!	!	!	!LO:LB:g=original	!	!	!	!	!
=128	=128	=128	=128	=128	=128	=128	=128	=128	=128	=128	=128	=128	=128	=128	=128	=128
8A\L	.	.	(<16d/LL	.	(>16dd\LL	.	4A\	ſae-	4A/	ſae-	4e\	ſae-	4cc\	ſae-	4cc\	4ee\
.	.	.	16c/J)	.	16cc\J)	.	.	.	.	.	.	.	.	.	.	.
!	!	!	!LO:TX:b:t=|:problem	!	!LO:TX:a:t=|:problem	!	!	!	!	!	!	!	!	!	!	!
8A\	.	.	8c/J	.	8cc\J	.	.	.	.	.	.	.	.	.	.	.
8E\	6 x	.	16r	.	16r	.	8E\	-cu-	8G/	-cu-	8e\	-cu-	8cc\	-cu-	4r	4r
.	.	.	(<16c/LL	.	16cc\LL	.	.	.	.	.	.	.	.	.	.	.
8E\J	.	.	16B/	.	16b\	.	8E\	-la	8G/	-la	8e\	-la	8cc\	-la	.	.
.	.	.	16B-X/JJ)	.	16b-X\JJ	.	.	.	.	.	.	.	.	.	.	.
=129	=129	=129	=129	=129	=129	=129	=129	=129	=129	=129	=129	=129	=129	=129	=129	=129
!	!	!	!LO:SIC:v:s:t=16B-	!	!LO:SIC:v:s:t=16b-	!	!	!	!	!	!	!	!	!	!	!
8F\L	.	.	(<16B/LL	.	(<16b/LL	.	4F\	ſae-	4c\	ſae-	4f\	ſae-	4a\	ſae-	2r	2r
.	.	.	16A/J)	.	16a/J)	.	.	.	.	.	.	.	.	.	.	.
8F\	.	.	8.A/J	.	8.a/J	.	.	.	.	.	.	.	.	.	.	.
8F\	4: 2:	.	.	.	.	.	4F\	-cu-	4d\	-cu-	4g\	-cu-	4a\	-cu-	.	.
.	.	.	(<16Bn/LL	.	(>16bn\LL	.	.	.	.	.	.	.	.	.	.	.
8F\J	.	.	16c/	.	16cc\	.	.	.	.	.	.	.	.	.	.	.
.	.	.	16d/JJ)	.	16dd\JJ)	.	.	.	.	.	.	.	.	.	.	.
!LO:LB:g=original	!	!	!	!	!	!	!	!	!LO:LB:g=original	!	!	!	!	!	!	!
=130	=130	=130	=130	=130	=130	=130	=130	=130	=130	=130	=130	=130	=130	=130	=130	=130
8E\L	6: x	.	16c/LL	.	(<16cc/LL	.	4E\	-lo-	4c\	-lo-	4g\	-lo-	4cc\	-lo-	8r	8r
.	.	.	16G/J	.	16g/J)	.	.	.	.	.	.	.	.	.	.	.
8E\	.	.	8.G/J	.	8.g/J	.	.	.	.	.	.	.	.	.	8cc\L	8ee\L
8E\	.	.	.	.	.	.	4E\	-rum	4c\	-rum	4g\	-rum	4cc\	-rum	8cc\	8ee\
.	.	.	(16c/LL	.	(>16cc\LL	.	.	.	.	.	.	.	.	.	.	.
8E\J	.	.	16e/	.	16ee\	.	.	.	.	.	.	.	.	.	8cc\J	8ee\J
.	.	.	16g/JJ)	.	16gg\JJ)	.	.	.	.	.	.	.	.	.	.	.
!	!	!	!LO:LB:g=original	!	!	!	!	!	!	!	!	!	!	!	!	!
=131	=131	=131	=131	=131	=131	=131	=131	=131	=131	=131	=131	=131	=131	=131	=131	=131
*	*	*	*	*	*	*	*	*ij	*	*	*	*ij	*	*	*	*
8BB/L	6 5	.	16g/LL	.	16gg\LL	.	4B\	ſae-	4G/	ſae-	4f\	ſae-	4dd\	ſae-	4g/	4dd\
!	!	!	!LO:TX:a:t=P:problem:niejednoznaczny zapis łuku	!	!LO:TX:a:t=P:problem:niejednoznaczny zapis łuku	!	!	!	!	!	!	!	!	!	!	!
.	.	.	(<16f/	.	(>16ff\	.	.	.	.	.	.	.	.	.	.	.
8BB/	.	.	16e/)	.	16ee\	.	.	.	.	.	.	.	.	.	.	.
.	.	.	16d/JJ	.	16dd\JJ)	.	.	.	.	.	.	.	.	.	.	.
8C/	.	.	16f/LL	.	(>16ff\LL	.	4c\	-cu-	4G/	-cu-	4e\	-cu-	4cc\	-cu-	4cc\	4ee\
!	!	!	!LO:TX:a:t=P:problem:niejednoznaczny zapis łuku	!	!	!	!	!	!	!	!	!	!	!	!	!
.	.	.	(<16e/	.	16ee\)	.	.	.	.	.	.	.	.	.	.	.
8E/J	6 x	.	16d/)	.	16dd\	.	.	.	.	.	.	.	.	.	.	.
.	.	.	16c/JJ	.	16cc\JJ	.	.	.	.	.	.	.	.	.	.	.
!	!	!	!	!	!	!	!	!	!	!	!	!	!LO:LB:g=original	!	!	!
=132	=132	=132	=132	=132	=132	=132	=132	=132	=132	=132	=132	=132	=132	=132	=132	=132
!!mixed beam:problem
!LO:TX:t=P:problem:mixed beam	!	!	!LO:SIC:v:s:t=16c#	!	!	!	!	!	!	!	!	!	!	!	!	!
8F\L	6: x	.	16c/LL	.	16cc#X\LL	.	8F\	-lo-	8A/	-lo-	8f\	-lo-	8dd\	-lo-	4dd\	4ff\
.	.	.	16d/	.	16dd\	.	.	.	.	.	.	.	.	.	.	.
8F\	.	.	16a/	.	16ff\	.	8F\	-rum	8A/	-rum	8f\	-rum	8dd\	-rum	.	.
.	.	.	16f/JJ	.	16dd\JJ	.	.	.	.	.	.	.	.	.	.	.
!	!	!	!	!	!LO:LB:g=original	!	!	!	!	!	!	!	!	!	!	!
*	*	*	*	*	*	*	*	*Xij	*	*	*	*Xij	*	*	*	*
8G\	4 x	.	16f/LL	.	16dd\LL	.	4G\	a-	4G/	a-	8e\L	a-	8cc\L	a-	8cc\L	8ee\L
.	.	.	16e/	.	16ccn\	.	.	.	.	.	.	.	.	.	.	.
8GG/J	x 3	.	16e/	.	16cc\	.	.	.	.	.	8d\J	.	8b\J	.	8g\J	8dd\J
.	.	.	16d/JJ	.	16b\JJ	.	.	.	.	.	.	.	.	.	.	.
!	!	!	!	!	!	!	!	!	!	!	!LO:LB:g=original	!	!	!	!LO:LB:g=original	!LO:LB:g=original
=133	=133	=133	=133	=133	=133	=133	=133	=133	=133	=133	=133	=133	=133	=133	=133	=133
4C/	.	.	8e/L	.	8cc\L	.	4C/	-men	4G/	-men	4e\	-men	4cc\	-men	4e/	4cc\
.	.	.	32c/LL	.	(>32cc\LL	.	.	.	.	.	.	.	.	.	.	.
.	.	.	32d/	.	32dd\	.	.	.	.	.	.	.	.	.	.	.
!	!	!	!LO:TX:a:t=P:problem:niejednoznaczny zapis łuku	!	!	!	!	!	!	!	!	!	!	!	!	!
.	.	.	(<32e/	.	32ee\	.	.	.	.	.	.	.	.	.	.	.
.	.	.	32f/JJJ	.	32ff\JJJ)	.	.	.	.	.	.	.	.	.	.	.
8r	.	.	8g/L)	.	8gg\L	.	8r	.	8r	.	8r	.	8r	.	8r	8r
*	*	*	*	*	*	*	*	*	*	*ij	*	*	*	*ij	*	*
!	!	!	!LO:TX:b:t=|:problem	!	!LO:TX:a:t=|:problem	!	!	!	!	!	!	!	!	!	!	!
8GG/	.	.	8f/J	.	8b\J	.	8G\	a-	8G/	a-	8d\	a-	8b\	a-	8g/	8dd\
!	!	!	!	!	!	!	!LO:LB:g=original	!	!	!	!	!	!	!	!	!
=134	=134	=134	=134	=134	=134	=134	=134	=134	=134	=134	=134	=134	=134	=134	=134	=134
!	!	!	!LO:TX:b:t=|:problem	!	!LO:TX:a:t=|:problem	!	!	!	!	!	!	!	!	!	!	!
4C/	.	.	8e/L	.	8cc\L	.	4C/	-men	4G/	-men	4e\	-men	4cc\	-men	4e/	4cc\
.	.	.	32c/LL	.	(>32cc\LL	.	.	.	.	.	.	.	.	.	.	.
.	.	.	32d/	.	32dd\	.	.	.	.	.	.	.	.	.	.	.
!	!	!	!LO:TX:a:t=P:problem:niejednoznaczny zapis łuku	!	!	!	!	!	!	!	!	!	!	!	!	!
.	.	.	(<32e/	.	32ee\	.	.	.	.	.	.	.	.	.	.	.
.	.	.	32f/JJJ	.	32ff\JJJ)	.	.	.	.	.	.	.	.	.	.	.
8r	.	.	8g/L)	.	8gg\L	.	8r	.	8r	.	8r	.	8r	.	8r	8r
*	*	*	*	*	*	*	*	*ij	*	*	*	*ij	*	*	*	*
!	!	!	!	!	!LO:TX:a:t=|:problem	!	!	!	!	!	!	!	!	!	!	!
8GG/	.	.	8f/J	.	8b\J	.	8G\	a-	8G/	a-	8d\	a-	8b\	a-	8g/	8dd\
=135	=135	=135	=135	=135	=135	=135	=135	=135	=135	=135	=135	=135	=135	=135	=135	=135
4C/	.	.	4e/	.	4cc\	.	4C/	-men	4G/	-men	4e\	-men	4cc\	-men	4e/	4cc\
4r	.	.	4r	.	4r	.	4r	.	4r	.	4r	.	4r	.	4r	4r
*	*	*	*	*	*	*	*	*Xij	*	*Xij	*	*Xij	*	*Xij	*	*
==	==	==	==	==	==	==	==	==	==	==	==	==	==	==	==	==
*-	*-	*-	*-	*-	*-	*-	*-	*-	*-	*-	*-	*-	*-	*-	*-	*-
!!!system-decoration: [(g1)][(g2)][(g3)]g4
!!!RDF**kern: > = above
!!!RDF**kern: < = below
!!!AIN: 1 alto 1 bass 2 cor 1 organ 1 tenor 2 violn
!!!ENC: Andrzej Kubiczek
!!!END: 2020-07-17
!!!EED: Jędrzej Mróz
!!!EST: 2022-01-14
